X:1
T:Introduction et Rondo Capriccioso
T:Introduction et Rondo Capriccioso
T:Op. 28 (Saint-Saëns)
T:Camille Saint-Saëns
T:arr. Claude Debussy
C:Camille Saint-Saëns
%%score { ( 1 4 ) | ( 2 3 5 ) } { ( 6 8 ) | ( 7 9 ) }
L:1/8
Q:1/4=52
M:2/4
K:C
V:1 treble nm="Piano I"
V:4 treble 
V:2 treble 
V:3 treble 
V:5 treble 
V:6 treble nm="Piano II"
V:8 treble 
V:7 bass 
V:9 bass 
V:1
"^Andante malinconico"!pp! z4 | z4 |!p! (eA) z/ E/- (E/4A/4c/4e/4) | (fc) z/ F/- (F/4A/4c/4f/4) | %4
 (a3/2g/4f/4 e/) z/ .c/ z/ | d4 | (fA) z/ F/- (F/4A/4d/4f/4) | (e^G) z/ D/- (D/4E/4G/4d/4) | %8
 (c3/2B/4A/4) (.^G.A) | B2- (5:4:5(B/!tenuto!c/!tenuto!d/!tenuto!^d/!tenuto!e/) | %10
 (eA) z/ E/- (E/4A/4^c/4e/4) | (fA) z/ D/- (5:4:5(D/4F/4A/4d/4f/4) | (a3/2g/4f/4 .e/) z/ .c/ z/ | %13
 d4 | (fA) z/ F/- (F/4A/4d/4f/4) | (e^G) z/ D/- (D/4E/4G/4d/4) | (c-(3c/B/A/) _B/ z/ ^G/ z/ | %17
 A2"^animato"[I:staff +1] (A/4c/4)[I:staff -1].e/4.e/4[I:staff +1] (^G/4B/4)[I:staff -1].e/4.e/4 | %18
[I:staff +1] (B/4d/4)[I:staff -1].e/4.e/4[I:staff +1] (A/4c/4)[I:staff -1].e/4.e/4[I:staff +1] (c/4e/4)[I:staff -1].a/4.a/4[I:staff +1] (d/4f/4)[I:staff -1].b/4.b/4 | %19
 (^ge)!>(! (=g3/2(3f/4e/4d/4) | (ec)!>)!!p! (e-e/d/8c/8B/8d/8) | %21
 (.c/.B/.A)!pp![I:staff +1] (A,/4C/4)[I:staff -1].E/4.E/4[I:staff +1] (^G,/4B,/4)[I:staff -1].E/4.E/4 | %22
[I:staff +1] (B,/4D/4)[I:staff -1].E/4.E/4[I:staff +1] (A,/4C/4)[I:staff -1].E/4.E/4[I:staff +1] (C/4E/4)[I:staff -1].A/4.A/4[I:staff +1] (D/4F/4)[I:staff -1].B/4.B/4 | %23
 (^GE)!>(! (=G3/2(3F/4E/4D/4) | (E!>)!C)!p! (B,-B,/4A,/4^G,/4A,/4) | %25
"^tranquillo" (^G,/4B,/4E/4^G/4) (B/e/ ^c/e/B/e/) | %26
[I:staff +1] (A/4^c/4e/4[I:staff -1]^f/4^c')[I:staff +1] (A/4B/4^d/4[I:staff -1]f/4b) | %27
[I:staff +1] (^g/4b/4[I:staff -1]e'/4^g'/4) (b'/e'/ ^c'/e'/b/e'/) | %28
[I:staff +1] a/4^c'/4e'/4!8va(![I:staff -1]^f'/4^c''- c''/4b'/4a'/4^f'/4!8va)![I:staff +1]^d'/4b/4c'/4a/4 | %29
[I:staff -1] b/4^g/4a/4^f/4[I:staff +1]^d/4B/4^c/4A/4[I:staff -1] B/4^G/4A/4^F/4[I:staff +1]^D/4B,/4D/4^F/4 | %30
 A/4[I:staff -1]B/4^d/4^f/4a/4f/4d/4B/4[I:staff +1] A/4^G/4^F/4G/4A/4[I:staff -1]^c/4B/4[I:staff +1]^D/4 | %31
[I:staff -1] z!p! E- (3(E/F/E/(3=D/C/D/) | %32
 (E2- (3E/!tenuto!F/!tenuto!E/(3!tenuto!=D/!tenuto!C/!tenuto!D/) |"^cresc." TE4 | %34
!f! (TE2{DCE)} (TD2{CB,D)} | (TC2{B,A,C)} (TB,2{A,^G,B,)} || %36
[M:6/8]!f![Q:3/8=88]"^Allegro ma non troppo" !wedge![A,E]"_dim." z z [A,C] z z | %37
 [A,C] z z [A,C] z z | z6 | z2 z!p!{/e'f'} !wedge!e'!wedge!^d'!wedge!e' | !wedge!=d' z c'- c'2 b- | %41
 b2 a{/ab} !wedge!a!wedge!^g!wedge!a | !wedge!=g z f- f2 e- | e2 d{/e} !wedge!d!wedge!^c!wedge!d | %44
 !wedge!=c z _B- B2 A- | A^G=B!pp! !>![Bd^g]3 | !>![Bd^g]3 !>![Bdg]3 | %47
 !>![cea]3!mp!{/e'f'} !wedge!e'!wedge!^d'!wedge!e' | !wedge!=d' z c'- c'2 b- | %49
 b2 a{/ab} !wedge!a!wedge!^g!wedge!a | !wedge!=g z f- f2 e- | e2 ^d{/de} (.d.^^c(d | %52
!pp! b)) z g- g2 e- | e2 c z c/d/e | z G/A/B z ^D/E/^F/G/ | E2 z{/e=f} !wedge!e!wedge!^d(e | %56
!pp! !wedge!a) z a- a z a- | (ag/f/.e){/ef} !wedge!e!wedge!^d!wedge!e |!p! !wedge!f z f- f z f- | %59
 fe/d/c{/cd} (.c.B.c) |!p! e z e- e2 e- | (ed/c/!wedge!G) z .E/.F/.G/.A/ | %62
 .F/.A/.d/.f/a z (!>!B,>F) | (!>!F2 E){/ef} !wedge!e!wedge!^d(e | a) z a- a z (a- | %65
 ag/^f/!wedge!e){/ef} !wedge!e!wedge!^d!wedge!e | !wedge!=f z f- f2 f- | %67
 fe/d/c{/cd} (!wedge!c!wedge!B!wedge!c) | e z e- e2 e- | (ed/c/G) z .e/.f/.g/.a/ | %70
 .f/.a/.d'/.f'/.a' z !>!B,>B, | !>!C2 z z!pp! g>g | (Ta2 g) z e>e | (Tf2 e) z c>c | %74
 (Td2 c) z E/F/G/E/ | (!>!F G,2) z d>d | (Te2 d) z B>B | (Tc2 B)!pp! z (3(B/d/f/!wedge!a) | %78
 z (3(B/d/^f/!wedge!a) z (3(B/d/=f/(3a/g/f/) | (ec') z z g>g | (Ta2 g) z e>e | (Tf2 e) z c>c | %82
 (Td2 c) z E/F/G/E/ | (!>!F ^G,2) z d>d | (Te2 d) z B>B | (Td2 c) z!8va(! (3(e/a/c'/e') | %86
 z (3(a/c'/e'/a')!8va)! z !>!^D>D | E3- E/.^F/.^G/.A/.B/.^c/ | %88
 .^d/.e/.^f/.^g/.a/.b/ .^c'/.^d'/.e'!f! z | !>!TF3/2(E/4F/4 D) x2 x | (Tf3/2e/4f/4) d x2 x | %91
 .^g' z z .B/.^c/.^d/.e/.^f/.^g/ | .a/.b/.^c'/.^d'/.e'/.^f'/ .^g'/.a'/.b'!f! z | %93
 (!>!TF3/2E/4F/4 D) x2 x | (Tf3/2e/4f/4) d x2 x | ^g'e'/g'/b/e'/ c'/e'/a/c'/e/a/ | %96
 ^g/b/e/g/B/e/ ^d/^f/b/^d'/^f'/b'/ | ^g'/b'/e'/g'/b/e'/ c'/e'/a/c'/e/a/ | %98
 ^g/b/e/g/B/e/ ^d/^f/b/^d'/^f'/b'/ | ^g'/b'/e'/g'/b/g'/ e'/g'/b/e'/^g/e'/ | %100
 b/e'/^g/b/e/b/ g/b/e/g/B/g/ | e/^g/B/e/^G/e/ B/e/G/B/E/e/ | B/e/^G/B/E/e/ B/e/G/B/E/e/ | %103
 z2 z !>!TE3 | z z/4!<(! (e/4^f/4^g/4a/4b/4c'/4d'/4!<)!!f! !wedge![eae'])!p!!wedge!^d'!wedge!e' | %105
 !wedge!=d' z c'- c'2 b- | b2 a{/ab} !wedge!a!wedge!^g!wedge!a | !wedge!=g z f- f2 e- | %108
 e2 d{/de} !wedge!d!wedge!^c!wedge!d | !wedge!=c z _B- B2 A- | (A^G=B)!pp! !>![Bd^g]3 | %111
 !>![Bd^g]3 !>![Bdg]3 | !>![Aca]2 z!p!{/e'f'} !wedge!e'!wedge!^d'!wedge!e' | %113
 !wedge!=d' z c'- c'2 b- |!pp! (b2 a){/ab} !wedge!a!wedge!^g!wedge!a | !wedge!=g z f- f2 e- | %116
 e2 d{/de} !wedge!d!wedge!^c!wedge!d | !wedge!=c z _B- B2 A | %118
 (!>!EA/c/!wedge!e) z (3(d/f/a/!wedge!c') | (!>!EA/c/!wedge!e) z (3(d/f/a/!wedge!c') | %120
!<(! (E/A/)!wedge!c/!wedge!e/!wedge!^F/!wedge!^f/ (^G/c/)!wedge!e/!wedge!^g/!wedge!A/!wedge!a/ | %121
 ^A/^a/B/b/c/c'/ ^c/^c'/d/d'/^d/^d'/!<)! |!f! .[ec'e']"_cresc." ^d/e/=d/e/ ^c/e/=c/e/[Bc]/e/ | %123
 [_Bc]/e/[I:staff +1] [CEA]/[I:staff -1][ce]/[I:staff +1][CE^G]/[I:staff -1][ce]/[I:staff +1] [CE=G]/[I:staff -1][ce]/[I:staff +1][CE^F]/[I:staff -1][ce]/[I:staff +1][C=F]/[I:staff -1][ce]/ | %124
!<(![I:staff +1] (E^F/^G/A/B/ (3c/d/[I:staff -1]e/(3^f/^g/a/(3b/c'/d'/ | %125
!8va(! (3e'/^f'/^g'/a'/4b'/4c''/4d''/4!<)! !wedge!e'') z!f! !wedge![^f'^f'']!wedge![^g'^g''] | %126
!f! !wedge![a'c''a'']!8va)! z!ff! (A a).a/.a/.a/.a/ | .c'.b.a .g.f.e | %128
 .g/.f/.e (E !>!^d).e/.e/.e/.e/ | .g.f.e .c.B.A | .c/.B/.A z F(3(E/F/E/(3D/E/D/) | %131
 z2 z F(3(E/F/E/(3D/E/D/) | z z !>!A C/B,/A, !>![Cc] | z z !>![Ee] C/B,/A, !>![^Fd^f] | %134
 !>![GBdg] z!f! ([Bg] g').g'/.g'/.g'/.g'/ | .b'.a'.g' .f'._e'.d' | %136
 f'/_e'/d' z!p! [db][db]/[db]/[db]/[db]/ | [db][db][db] [db][db][db] | %138
 [db]/[db]/[db]!p! z _E(3(D/E/D/(3C/D/C/) | B,/A,/G, z _E(3(D/E/D/(3C/D/C/) | %140
 B,/A,/G, !>!G z2 !>!B | z2 !>!d z2 !>!g | z2 z (F/E/D/B/A/G/) | z2 z (b/a/g/d'/c'/b/) | %144
!p! (f'/d'/b/g/f/e/[I:staff +1] ^c/d/f/[I:staff -1]g/b/d'/) | %145
 (f'/d'/b/g/f/e/[I:staff +1] ^c/d/f/[I:staff -1]g/b/d'/) | %146
 (f'/d'/b/g/f/e/[I:staff +1] ^c/[I:staff -1]d/f/e/d/=c/) | %147
[I:staff +1] (^A/[I:staff -1]B/d/c/B/=A/)[I:staff +1] (^F/[I:staff -1]G/B/A/G/=F/) | %148
[I:staff +1] (^C/[I:staff -1]D/F/E/D/=C/)[I:staff +1] (^A,/[I:staff -1]B,/D/C/B,/=A,/) | %149
[I:staff +1] (G,/A,/B,/C/D/E/[I:staff -1] F/G/A/B/c/d/ | e2) z z2 z | %151
[M:2/4] z3"^con morbidezza" e>e x | (f/g/f/e/ d2-) x2 | (d _A2) A x2 | (_A2 G2) x2 | %155
 z3/2 (c2 E) x3/2 | (F/G/F/E/ D2-) x2 | D F2 E x2 | D2 C2 x2 | z3 e>e x | (f/g/f/e/ d2-) x2 | %161
 (d _A2) A x2 | (_A2 G2) x2 | z3/2 (c2 E) x3/2 |!p! (^F/G/F/E/ ^D2-) x2 | (D A2) ^G x2 | %166
!pp! ^F2 E2 x2 | z3 (.[e^g]/.[eg]/.[eg]/.[eg]/) x |"_dim." ([^fa]/[^gb]/[fa]/[eg]/ [^df]2-) x2 | %169
 ([df] [Ac]2) [Ac] x2 | ([Ac]2 [^GB]2-) x2 | [GB]2 ([^GB]/[Be]/[e^g]/[gb]/) x2 | %172
 ([ac']/[bd']/[ac']/[^gb]/ [^fa]2-) x2 | ([fa] [ac']2) [^gb] x2 | ([^fa]2 [e^g]2-) x2 | %175
 [eg]2 ([^Ge]/^g/[db]/d'/) x2 | ([fd']/e'/d'/[e^c']/ [ec']2-) x2 | [ec'] [ge']2 [ge'] x2 | %178
 [ge']2 [^f^d']2- x2 | [fd']2 (3[^e^^c'][^f^d'][ge'] x2 | ([^f^d']/^f'/)([af']/a'/) [c'a']2- x2 | %181
 [c'a']2!f! ^D>D x2 |[M:6/8] !>!E/^D/E/F/E/=D/ !>!D/^C/D/E/D/=C/ | %183
 !>!C/B,/C/D/C/B,/ A,/C/^D/^F/A/c/ | !>!e/^d/e/f/e/=d/ !>!d/^c/d/e/d/=c/ | %185
 !>!c/B/c/d/c/B/ A/c/^d/^f/ a/c'/ |"_dim." e'3 d'3 | c'3 b3 |!p! a3 g3 | ^f3 =f3 | e z ^d/e/ e'3- | %191
 e'/[I:staff +1](E/^G/B/[I:staff -1]^d/e/ e'3-) | e' z z B^de | ^gb^d'!8va(! e'^g'b' | %194
 e''/e'/e''/e'/e''/e'/ e''/e'/e''/e'/e''/e'/ | %195
"_non legato" e''/^d''/=d''/^c''/=c''/b'/ ^a'/=a'/^g'/=g'/^f'/=f'/!8va)! | %196
"_cresc." e'/^d'/=d'/^c'/=c'/b/ ^a/=a/^g/=g/^f/=f/ | e/^d/=d/^c/=c/B/ ^A/=A/^G/=G/^F/=F/ | %198
!f![I:staff +1] (!>!E/(3=F/4G/4A/4(3B/4c/4d/4[I:staff -1](3e/4^f/4^g/4a/4b/4c'/4d'/4 !wedge!e')!mp!!wedge!^d'!wedge!e' | %199
!p! !wedge!=d' z c'- c'2 b- | b2 a"_dim."{/ab} !wedge!a!wedge!^g!wedge!a | !wedge!=g z f- f2 e- | %202
 e2 d"_cresc."{/de} !wedge!d!wedge!^c!wedge!d |!mp! !wedge!=c z _B- B2 A- | %204
 (A^G=B)!pp! !>![Bd^g]3 | !>![Bd^g]3 !>![Bdg]3 | !>![Aca]3!p!{/e'f'} !wedge!e'!wedge!^d'!wedge!e' | %207
 !wedge!=d' z c'- c'2 b- | b2 a"_cresc."{/ab} !wedge!a!wedge!^g!wedge!a | !wedge!=g z f- f2 e- | %210
 e2 d{/de} !wedge!d!wedge!^c!wedge!d | !wedge!=c z _B- (B2 A) |!p! (!>!EA/c/!wedge!e) [Ada] z z | %213
 (!>!EA/c/!wedge!e) [Ada] z z | E/A/c/e/^F/^f/ ^G/c/e/^g/A/a/ | %215
 ^A/^a/B/b/c/c'/ ^c/^c'/d/d'/^d/^d'/ | .[ec'e']"_cresc." ^d/e/=d/e/ ^c/e/=c/e/[Bc]/e/ | %217
 [_Bc]/e/[I:staff +1] [CEA]/[I:staff -1][ce]/[I:staff +1][CE^G]/[I:staff -1][ce]/[I:staff +1] [CE=G]/[I:staff -1][ce]/[I:staff +1][CE^F]/[I:staff -1][ce]/[I:staff +1][CE=F]/[I:staff -1][ce]/ | %218
!mf!!<(![I:staff +1] E^F/^G/A/B/ (3c/d/[I:staff -1]e/(3^f/^g/a/(3b/c'/d'/ | %219
!8va(! (3e'/^f'/^g'/a'/4b'/4c''/4d''/4 e''!<)! z!f! f''/^f''/g''/^g''/ | %220
!f! a''!8va)! z!ff! (A a)!wedge!a/!wedge!a/!wedge!a/!wedge!a/ | %221
 !wedge!c'!wedge!b!wedge!a !wedge!g!wedge!f!wedge!e | %222
 !wedge!g/!wedge!f/!wedge!e (E !>!^d)!wedge!e/!wedge!e/!wedge!e/!wedge!e/ | %223
 !wedge!g!wedge!f!wedge!e !wedge!c!wedge!B!wedge!A | %224
 !wedge!c/!wedge!B/!wedge!A z F(3(E/F/E/(3D/E/D/) | z2 z F(3(E/F/E/(3D/E/D/) | %226
 z2 !>!A C/B,/A, !>![Cc] | z2 !>![Ee] C/B,/A, !>![cea] | %228
 !>![ce_b] z!f! ([E_B] !>![Bb])!p! .b/.b/.b/.b/ | .d'.c'._b .a.g.^f | _b/a/g z z2!pp! .[^FA^d] | %231
 .[G_Be] z .[_A=Bf] .[G_Be] z .[FAd] | .[EGc] z z z2 z | z2 (B .e/).d/.c (B |!p! _B3-) B(^FG) | %235
 z (A_B) z!<(! (=Bc)!<)! |!>(! f3- fed!>)! | (c3- c2 B) | !>!_B3- B(^FG) | %239
 z (A_B) z!<(! (=Bc)!<)! |!>(! g2 f- fed!>)! | (c3- c2 B) |!p! (_B3 ^G3) | A3- A(C/E/A/c/) | %244
 (_B2 A) (T^G3{^FG)} |!<(! (A3!<)! _e3-) | e3"^legg." (d/_e/f/e/d/c/) | %247
 (B/c/d/c/_B/A/ ^F/G/B/d/g/_b/) |!p! (d'3 d3-) |"_dim." (d3 _d3) |"^dolce" (c2 a- a.g.f) | %251
 (.e.f.^c .e.d.A) | (.=c._B.D)!p!!>(! d3- | (d3 E3)!>)! | F3 z!pp! c'>c' | (Td'2 c') z a>a | %256
 (T_b2 a) z f>f | (Tg2 f) z (.A/._B/.c/.A/) | (_B !^!C2) z g>g |"^♭" (Ta2 g) z e>e | %260
 (Tf2 e)!pp! z (3(e/g/_b/!wedge!d') | z (3(e/^g/=b/!wedge!d') z (3(e/=g/_b/(3d'/c'/b/) | %262
 (aa') z!pp! .[cfa] z z | z2 z .[Afa] z z | z2 z .[Afa] z z | z2 z .[Afa] z z | %266
 z2 z .[_B^cg_b] z z | z2 z .[Aega] z z | z2 z z!<(! (3(A/d/f/a) | %269
 z (3(f/a/d'/f')!<)! z!<(! (!tenuto!D!tenuto!^D)!<)! |!f! !>!E/^D/E/F/E/=D/ z2 z | %271
 !>!C/B,/C/D/C/B,/ z2 z | !>!e/^d/e/f/e/=d/ z2 z | !>!c/B/c/d/c/B/ x2 x | %274
"_dim." e'/e/e'/b/^g/e/!p![I:staff +1] !>!e/[I:staff -1]d/d'/a/f/d/ | %275
[I:staff +1] !>!d/[I:staff -1]c/c'/g/e/c/[I:staff +1] !>!c/[I:staff -1]B/b/f/d/B/ | %276
!p![I:staff +1] !>!B/[I:staff -1]A/a/e/c/A/[I:staff +1] !>!A/[I:staff -1]G/g/d/B/G/ | %277
[I:staff +1] !>!G/[I:staff -1]^F/^f/c/A/F/[I:staff +1] !>!^F/[I:staff -1]=F/=f/c/A/F/ | %278
"_cresc."[I:staff +1] E/[I:staff -1]^G/B/e/B/G/[I:staff +1] E/[I:staff -1]G/B/e/B/G/ | %279
[I:staff +1] E/[I:staff -1]^G/B/e/B/G/[I:staff +1] E/[I:staff -1]G/B/e/B/G/ | %280
!f! e/^g/b/e'/b/g/ e/g/b/e'/b/g/ | e/^g/b/e'/b/g/ e/g/b/e'/b/g/ | %282
 .e z z!f![I:staff +1] E/[I:staff -1]^G/B/e/B/G/ | %283
"_dim."[I:staff +1] D/[I:staff -1]^G/B/e/B/G/[I:staff +1] D/[I:staff -1]G/B/e/B/G/ | %284
[I:staff +1] C/[I:staff -1]G/c/e/c/G/[I:staff +1] C/[I:staff -1]G/c/e/c/G/ | %285
[I:staff +1] B,/[I:staff -1]^G/d/e/d/G/[I:staff +1] B,/[I:staff -1]G/d/e/d/G/ | %286
!p![I:staff +1] A,/[I:staff -1]E/c/e/c/E/[I:staff +1] [A,C]/[I:staff -1]E/c/e/c/E/ | %287
[I:staff +1] A,/[I:staff -1]E/c/e/c/E/[I:staff +1] [A,C]/[I:staff -1]E/c/e/c/E/ | %288
[I:staff +1] A,/[I:staff -1]E/c/e/c/E/[I:staff +1] [A,C]/[I:staff -1]E/c/e/c/E/ | %289
[I:staff +1] A,/[I:staff -1]D/_B/f/B/D/[I:staff +1] [A,_B,]/[I:staff -1]D/B/f/B/D/ | %290
[I:staff +1] A,/[I:staff -1]D/_B/f/B/D/[I:staff +1] [A,_B,]/[I:staff -1]D/B/f/B/D/ | %291
[I:staff +1] A,/[I:staff -1]D/B/e/B/D/[I:staff +1] B,/[I:staff -1]D/B/e/B/D/ | %292
[I:staff +1] B,/[I:staff -1]D/B/e/B/D/[I:staff +1] B,/[I:staff -1]D/B/e/B/D/ | %293
 z/ C/E/A/c/e/ z/ c/e/a/c'/e'/ |"_cresc." z/ C/E/A/c/e/ z/ c/e/a/c'/e'/ | %295
 z/ ^C/E/A/^c/e/ z/ c/e/a/^c'/e'/ | z/ ^C/E/A/^c/e/ z/ c/e/a/^c'/e'/ | %297
"_cresc." z/ D/F/_B/d/f/ z/ d/f/_b/d'/f'/ | %298
[I:staff +1] _B,/D/F/[I:staff -1]_B/d/f/[I:staff +1] !>!c'/a/f/[I:staff -1]c/A/F/ | %299
!f! E/!<(!A/c/e/^F/^f/ ^G/c/e/^g/A/a/ | ^A/^a/B/b/c/c'/ ^c/^c'/d/d'/^d/^d'/!<)! | !trill(!Te'6 | %302
 !trill)!e'6{^d'e'} |!f! !wedge![ac'a']!ff! [ce][ce] [ce][ce][de] | e [ca][ca] [dac'][dgb][dbd'] | %305
 [eac'][fc'_e'][f_bd'] [=e=bd'][ea^c'][da=c'] | [dgb][cg_b][cfa] !>![Aca]!>![Aca]!>![ABa] | %307
 !wedge![Aca] z z z2 z | z6 |!mp! !arpeggio![EABe] z z z2 z |!p! !arpeggio![E^GBe] z z z2 z || %311
[K:A][Q:3/8=120]"^Più allegro"[I:staff +1] A,/C/E/[I:staff -1]A/c/e/[I:staff +1] ^d/[I:staff -1]f/b/a/f/^d/ | %312
[I:staff +1] =d/[I:staff -1]=f/b/a/f/d/[I:staff +1] c/[I:staff -1]e/b/a/e/c/ | %313
[I:staff +1] B/[I:staff -1]^d/g/f/d/B/[I:staff +1] A/[I:staff -1]d/g/f/d/A/ | %314
[I:staff +1] G/F/E/F/G/A/ B/[I:staff -1]c/=d/f/e/d/ | %315
[I:staff +1] c[I:staff -1](e/a/)c'/e'/[I:staff +1] ^d'/[I:staff -1]f'/b'/a'/f'/^d'/ | %316
[I:staff +1] =d'/[I:staff -1]=f'/b'/a'/f'/d'/[I:staff +1] c'/[I:staff -1]e'/b'/a'/e'/c'/ | %317
[I:staff +1] b/[I:staff -1]^d'/g'/f'/d'/b/[I:staff +1] a/[I:staff -1]d'/g'/f'/d'/a/ | %318
[I:staff +1] g/[I:staff -1]b/f'/e'/d'/c'/ b/[I:staff +1]a/g/f/e/d/ | %319
[I:staff -1] x A/B/A/G/ A/B/c/d/e/f/ | x2!<(! ([ac']!<)!!>(! [ad']2 a)!>)! | %321
 x2!<(! ([ac']!<)!!>(! [ad']2 a)!>)! | x2!<(! (^d'!<)!!>(! e'2) b!>)! | %323
!p! x2!<(! [fd'f']!<)!!>(! [=gd'=g']2 d'!>)! | =g'/!mp!f'/e'/d'/c'/e'/ x2 x | %325
 c'/b/=a/g/f/a/[I:staff +1] A/G/F/E/^D/F/ | %326
"_cresc."[I:staff -1] f/e/=d/c/B/d/[I:staff +1] D/C/B,/A,/G,/B,/ | %327
[I:staff -1] B/A/G/F/^E/G/ G/F/[I:staff +1]=E/D/C/B,/ | %328
!f![I:staff -1] F/E/[I:staff +1]D/C/B,/A,/ B,/C/D/E/[I:staff -1]F/G/ | %329
!<(! A/B/c/d/e/f/ g/a/b/c'/d'/e'/!<)! | !>!f'/e'/ z z !>!f'/e'/[I:staff +1]d'/c'/b/a/ | %331
[I:staff -1] !>!f'/e'/[I:staff +1]d'/c'/b/^a/[I:staff -1] !>!f'/e'/[I:staff +1]d'/c'/b/a/ | %332
[I:staff -1] !>!f'/e'/d'/c'/b/=a/[I:staff +1] g/f/e/d/c/B/ | %333
[I:staff -1] !>!f/e/d/c/B/A/[I:staff +1] G/F/E/D/C/B,/ | %334
 A,/!p!B,/C/D/E/[I:staff -1]F/ G/^A/^B/c/^d/e/ | x2 x g z z |"_cresc." a z z x2 x | %337
 x2 x [egb] z z |!mf! [cea] x x x2 x |"^cresc." [Acea] x x x2 x | [ceac'] x x x2 x | %341
 [eac'e'] x x x2 x |!f! (a/^a/b/=c'/^c'/d'/ ^d'/e'/^e'/f'/=g'/^g'/ | a') z z!ff! [ac'e'a'] z z | %344
 [Aa]2 z !fermata!z2 z |] %345
V:2
 [A,CE]4- | [A,CE]4 |!pp! !tenuto!E2 z2 | !tenuto!F2 z2 | E4 | [B,DG]4 |[K:bass] [D,A,]4 | %7
 [^G,E]4 |[K:treble] ([CE]2 [^D^F]2 | E2 =D2) | [^C=G]4 | [DF]2 z2 | ([CE]2 [EA]2) | [G_B]4 | %14
 [FA]2 z2 | [E^G]2 z2 |[K:bass] (C-(3C/B,/A,/) _B,/ z/ ^G,/ z/ | A,2[K:treble] x2 | x4 | %19
 z2!p!!>(! (!>![DG-]2 | [CG]2)!>)! z2 | x4 | x4 | z2!p! (!>!B,2 | [G,C]2)[K:bass] (^D,2 | %25
 E,) z z2 |[K:treble] x4 | x4 | x4 | x4 | x4 | E z[K:bass] ([F,A,]2 | [C,G,]2 [F,A,]2) | %33
 .[E,^G,B,] z z2 |[K:treble] .E z .D z | .C z .B, z || %36
[M:6/8][K:bass] !wedge![A,,E,] z z [A,,E,] z z | [A,,E,] z z [A,,E,] z z | z6 | z6 | z6 | z6 | z6 | %43
 z6 | z6 | z2 z !>![E,B,D]3 | !>![E,B,D]3 !>![E,B,D]3 | !>![E,A,C]3 z2 z | z6 | z6 | z6 | z6 | %52
 [E,E]6- | [E,E]3 .[A,CE]2 z | .[G,B,E]2 z .[A,B,]2 z | [G,B,]2 z z2 z | ([G,DF]6 | [CE]2) z z2 z | %58
 ([E,B,D]6 | [A,C]2) z z2 z | [D,A,C]6 | [G,,G,]6- | [G,,G,]6 | [C,G,]2 z z2 z | %64
[K:treble] [^FB] z z [B,F] z z |[K:bass] !arpeggio![E,B,G] z z z2 z | ([E,B,D]6 | [A,C]2) z z2 z | %68
 [D,A,C]6 |[K:treble] z2 z .[^CE]2 z | [DF]2 z ([DF]3 | E2) z z2 z | z6 | z6 | z6 | z6 | z6 | %77
 z2 z !>![G,DF]3 | !>![G,D^F]3 !>![G,D=F]3 | [CE]2 x z2 z | z6 | z6 | z6 | z6 |[K:bass] E6- | %85
 [CE]6- | [CE]3 x3 | [E,^G,B,]2 z z2 z |[K:treble] z2 z z2 E | %89
 !>![A,D]2 z (3z/ (B,/D/(3F/A/[I:staff -1]B/(3d/f/a/) | %90
[I:staff +1] z2 z (3z/ B/d/(3f/a/[I:staff -1]b/(3d'/f'/a'/ | %91
[I:staff +1] [E,E] .E/.^F/.^G/.A/ z2 z | z2 z z2 E | %93
 !>![A,D]2 z (3z/ (B,/D/(3F/A/[I:staff -1]B/(3d/f/a/) | %94
[I:staff +1] z2 z (3z/ B/d/(3f/a/[I:staff -1]b/(3d'/f'/a'/ |[I:staff +1] z [B,E^G] z z [CEA] z | %96
 z [B,E^G] z z [B,^D^F] z | z [B,E^G] z z [CEA] z | z [B,E^G] z z [B,^D^F] z | %99
 z !arpeggio![B,E^G] z z !arpeggio![B,EG] z | z !arpeggio![B,E^G] z z2 z | z6 | z6 | !>!TE3 z2 z | %104
 TE3 [A,EA] z z | z6 | z6 | z6 | z6 | z6 |[K:bass] z2 z [E,B,D]3 | [E,B,D]3 [E,B,D]3 | %112
 [E,CE]2 z z2 z | z6 | [E,^C]6- | [E,C]6 | [_B,D]6- | ([B,D]3 [A,C]3) | %118
 [A,C].E.E,[K:treble] [A,DA] z z |[K:bass] [A,C].E.E,[K:treble] [A,DA] z z |[K:bass] [A,C]3 [CE]3 | %121
 .^A,.B,.C .^C.D.^D | .[E,CE][K:treble] E2- E E2- | E x x x2 x | x6 | %125
 (3e/^f/^g/a/4b/4c'/4d'/4 !wedge!e' z !wedge![^F^f]!wedge![^G^g] | %126
 !wedge![A,EA] z (A, A).A/.A/.A/.A/ | .c.B.A .G.F.E | .G/.F/.E[K:bass] (E, !>!^D).E/.E/.E/.E/ | %129
 .G.F.E .C.B,.A, | .C/.B,/.A, A, x x2 | C/B,/A, A, x x2 | C/B,/A, !>![A,,A,] z z !>![E,,E,] | %133
 C/B,/A, !>![E,,E,] z z !>![D,,D,] | !>![G,,,G,,] z[K:treble] !arpeggio![G,D] z2 z | z6 | %136
 z2 z GG/G/G/G/ | G6 | G/G/G G, z2 z | z z G, z2 z | z2 z B,/A,/G, z | B,/A,/G, z B,/A,/G, z | z6 | %143
 z6 | G,6 | G,6 | G,6 | x6 | x6 | x6 | z6 |[M:2/4] z6 | z6 | z6 | z6 | z6 | z6 | z6 | z6 | z6 | %160
 z6 | z6 | z6 | z6 |[K:bass] [A,,,A,,] z z z2 z | [B,,,B,,] z z z2 z | E,6- | E,6 |!pp! E,6- | %169
 E,6 | E,6- | E,6 | E,6- | E,6 | E,6- |!pp! E,6!8vb(!!8vb)! | E,6- |!pp! E,6!8vb(!!8vb)! | %178
 [E,,E,]6- | [E,,E,]6!8vb(!!8vb)! | [E,,E,]6- | [E,,E,]6!8vb(!!8vb)! |[M:6/8] [E,,,E,,] z z x2 x | %183
 x6 | x6 | x6 |[K:treble] E3(x/d/) z z |(x/c/)zz(x/B/) z z |(x/A/)zz(x/G/) z z | %189
(x/^F/)zz(x/=F/) z z | E,/E/^G/B/ z x3 | x6 | z E^G z2 z | z6 | z6 | z6 | z6 | z6 | %198
 x3 !wedge![A,CEA] z z |[K:bass] [E,A,C] z z [E,A,C] z z | [E,A,C] z z [E,A,C] z z | %201
 [E,A,C] z z [E,A,C] z z | [F,_B,D] z z [F,B,D] z z | [F,_B,D] z z [F,B,D] z z | %204
 [F,=B,D] z z !>![F,B,D]3 | !>![F,B,D]3 !>![F,B,D]3 | !>![E,A,C]3 [E,A,C] z z | %207
 [E,A,C] z z [E,A,C] z z | [E,G,^C] z z [E,G,C] z z | [E,G,^C] z z [E,G,C] z z | %210
 [F,_B,D] z z [F,B,D] z z | [F,_B,D] z z [A,CF] z z |!pp! .[A,C].E.E, [A,D]3 | .[A,C].E.E, [A,D]3 | %214
 [A,C]2 x [CE]2 x | .^A,.B,.C .^C.D.^D | .[E,CE][K:treble] E2- E E2- | E x x4 | x6 | %219
 (3e/^f/^g/a/4b/4c'/4d'/4 e' z f'/^f'/g'/^g'/ | a' z (A, A)!wedge!A/!wedge!A/!wedge!A/!wedge!A/ | %221
 !wedge!c!wedge!B!wedge!A !wedge!G!wedge!F!wedge!E | %222
 !wedge!G/!wedge!F/!wedge!E[K:bass] (E, !>!^D)!wedge!E/!wedge!E/!wedge!E/!wedge!E/ | %223
 !wedge!G!wedge!F!wedge!E !wedge!C!wedge!B,!wedge!A, | !wedge!C/!wedge!B,/!wedge!A, A, x2 x | %225
 C/B,/A, A, x2 x | C/B,/A, !>![A,,A,] z2 !>![E,,E,] | C/B,/A, !>![E,,E,] z2 !>![A,,,A,,] | %228
 !>![G,,,G,,] z[K:treble] G, z2 z | z6 | z2 (^F ._B/).A/.G .C | .C z .C .C z .C | .C z z z2 z | %233
 z6 |[K:bass]!pp! C,6- | C,6 |!pp! (!>!_A,6 | =A,3 ^F,3 | G,6-) | G,6 | (_A,6 | =A,6) | (D3 =B,3 | %243
 A,6) | (D3 =B,3 | A,3) (^F,3- | F,6- | F,3 G,3-) | (G,6- | G,3 ^G,3 | A,2) z z2 z | z6 | z6 | z6 | %254
[K:treble] z2 z!pp! .C z z | z2 z .C z z | z2 z .C z z | z2 z .C z z | z6 | z2 z .C z z | %260
 z2 z !>![G_B]3 | !>![^G=B]3 !>![=G_B]3 | [FA]2 x .[CFA] z z | z .[FA]/.C/.[FA]/.C/ .F z z | %264
 z .[FA]/.C/.[FA]/.C/ .F z z | z .[FA]/.C/.[FA]/.C/ .F z z | z .[^CG]/._B/.[CG]/.B/ .E z z | %267
 z .[A,E]/.A/.[A,E]/.G/ .^C z z | z .[DF]/.A/.[DF]/.A/ z[K:bass] .=C.C, | z .B,.B,, [F,A,]3 | %270
 [E,^G,] z z[K:treble] !>!D/^C/D/E/D/=C/ | z2 z !>!A,/C/^D/^F/A/c/ | z2 z !>!d/^c/d/e/d/=c/ | %273
 z2 z !>!A/[I:staff -1]c/^d/^f/a/c'/ |[I:staff +1] E3 x2 x | x6 | x6 | x6 | x6 | x6 | %280
[K:bass] E,/^G,/B,/E/B,/G,/ E,/G,/B,/E/B,/G,/ | E,/^G,/B,/E/B,/G,/ E,/G,/B,/E/B,/G,/ | %282
 .E, z z[K:treble] x2 x | !>!D x x x2 x | !>!C x x x2 x | !>!B, x x x2 x | %286
[K:bass] [A,,A,] z z z2 z | [A,,A,] z z z2 z | [A,,A,] z z z2 z | [A,,A,] z z z2 z | %290
 [A,,A,] z z z2 z | [A,,A,] z z !arpeggio![A,,E,B,]2 x | %292
 !arpeggio![A,,E,B,]2 x !arpeggio![A,,E,B,]2 x | [A,,A,]2 z[K:treble] !arpeggio![CEA]2 z | %294
[K:bass] [A,,A,]2 z[K:treble] !arpeggio![CEA]2 z | %295
[K:bass] [A,,A,]2 z[K:treble] !arpeggio![^CEA]2 z | %296
[K:bass] [A,,A,]2 z[K:treble] !arpeggio![^CEA]2 z | _B,2 z !arpeggio![DF_B]2 z | x6 | %299
[K:bass] [A,C]2 x [CE]2 x | ^A,B,C ^CD^D |[K:treble] [EAce]"^cresc." [Ee]2- [Ee] [Ee]2- | %302
 [Ee] [Ece]2- [Ece] [Ece]2 | !wedge![Ece] E^F ^GAB | z [CA][CA] [DAc][DGB][EBd] | %305
 [EAc][Fc_e][F_Bd] [=E=Bd][EA^c][DA=c] | %306
 [DGB][CG_B][CFA][K:bass]"^rit." !>![A,C]!>![A,C]!>![A,B,] |"^a tempo" !wedge![E,CE] z z z2 z | %308
 z6 | !arpeggio![E,A,B,] z z z2 z | !arpeggio![E,^G,B,] z z z2 z ||[K:A][K:treble] x6 | x6 | x6 | %314
 x6 | x6 | x6 | x6 | x6 | c z z z2 z |[I:staff -1] !>!=g/e/c/[I:staff +1]A/=G/E/ [DFA]3 | %321
[I:staff -1] !>!=g/e/c/[I:staff +1]A/=G/E/ [DFA]3 | %322
[I:staff -1] !>!a/f/^d/[I:staff +1]B/A/F/ [E=GB]3 | %323
[I:staff -1] !>!=c'/a/f/[I:staff +1]=d/=c/A/ [=GBd]3 | [E=G]3 e/d/c/B/^A/c/ | x6 | x6 | x6 | x6 | %329
 A,/B,/C/D/E/F/ G/A/B/c/d/e/ | f d'/c'/b/a/ x2 x | x6 | x6 | x6 | x6 | %335
[I:staff -1] f/e/=d/c/[I:staff +1]=B/=A/ G/F/E/D/C/B,/ | %336
 A,/B,/C/D/E/[I:staff -1]F/ G/^A/^B/c/^d/e/ | f/e/=d/c/[I:staff +1]=B/=A/ G/F/E/D/C/B,/ | %338
 A,/C/E/A/[I:staff -1]c/e/ a/e/c/[I:staff +1]A/E/C/ | %339
 A,/C/E/A/[I:staff -1]c/e/ a/e/c/[I:staff +1]A/E/C/ | %340
 A,/C/E/A/[I:staff -1]c/e/ a/e/c/[I:staff +1]A/E/C/ | %341
 A,/C/E/A/[I:staff -1]c/e/ a/e/c/[I:staff +1]A/E/C/ | (A/^A/B/=c/^c/d/ ^d/e/^e/f/=g/^g/ | %343
 a) z z [EAce] z z | A,2 z !fermata!z2 z |] %345
V:3
 x4 | x4 | [A,C]4- | [A,C]4 | [A,C]4 | G,4 |[K:bass] x4 | x4 |[K:treble] (A,4 | B,4) | A,4- | A,4 | %12
 (A,2 C2) | D4 | D4- | D4 |[K:bass] x4 | x2[K:treble] x2 | x4 | x4 | x4 | x4 | x4 | x4 | %24
 x2[K:bass] x2 | x4 |[K:treble] x4 | x4 | x4 | x4 | x4 | x2[K:bass] x2 | x4 | x4 |[K:treble] x4 | %35
 x4 ||[M:6/8][K:bass] x6 | x6 | x6 | x6 | x6 | x6 | x6 | x6 | x6 | x6 | x6 | x6 | x6 | x6 | x6 | %51
 x6 | x6 | x6 | x6 | x6 | x6 | x6 | x6 | x6 | x6 | x6 | x6 | x6 |[K:treble] x6 |[K:bass] x6 | x6 | %67
 x6 | x6 |[K:treble] G,6- | G,2 z x2 x | x6 | x6 | x6 | x6 | x6 | x6 | x6 | x6 | z z .C x2 x | x6 | %81
 x6 | x6 | x6 |[K:bass] x6 | (A,3 G,3 | ^F,3 B,3) | x6 |[K:treble] x6 | x6 | x6 | x6 | x6 | x6 | %94
 x6 | x6 | x6 | x6 | x6 | x6 | x6 | x6 | x6 | x6 | x6 | x6 | x6 | x6 | x6 | x6 |[K:bass] x6 | x6 | %112
 x6 | x6 | x6 | x6 | x6 | x6 | x3[K:treble] x3 |[K:bass] x3[K:treble] x3 | %120
[K:bass] E,2 ^F, ^G,2 A, | x6 | x[K:treble] x5 | x6 | x6 | x6 | x6 | x6 | x2[K:bass] x4 | x6 | x6 | %131
 x6 | x6 | x6 | x2[K:treble] x4 | x6 | x6 | x6 | x6 | x6 | x6 | x6 | x6 | x6 | x6 | x6 | x6 | x6 | %148
 x6 | x6 | x6 |[M:2/4] x6 | x6 | x6 | x6 | x6 | x6 | x6 | x6 | x6 | x6 | x6 | x6 | x6 | %164
[K:bass] x6 | x6 | E,, z z z2 z | x6 | x6 | x6 | x6 | x6 | x6 | x6 | x6 | %175
 z!8vb(! E,,,/E,,,/E,,,/E,,,/ E,,,!8vb)! z z | x6 | z!8vb(! E,,,/E,,,/E,,,/E,,,/ E,,,!8vb)! z z | %178
 x6 | z!8vb(! E,,,/E,,,/E,,,/E,,,/ E,,,!8vb)! z z | x6 | %181
 z!8vb(! E,,,/E,,,/E,,,/E,,,/ E,,,!8vb)! z z |[M:6/8] x6 | x6 | x6 | x6 |[K:treble] x3 D3 | %187
 C3 B,3 | A,3 G,3 | ^F,3 =F,3 | E,2 x x3 | x6 | x6 | x6 | x6 | x6 | x6 | x6 | x6 |[K:bass] x6 | %200
 x6 | x6 | x6 | x6 | x6 | x6 | x6 | x6 | x6 | x6 | x6 | x6 | x6 | x6 | E,2 ^F, ^G,2 A, | x6 | %216
 x[K:treble] x5 | x6 | x6 | x6 | x6 | x6 | x2[K:bass] x4 | x6 | x6 | x6 | x6 | x6 | %228
 x2[K:treble] x4 | x6 | x6 | x6 | x6 | x6 |[K:bass] x6 | x6 | C,6- | C,6 | C,6- | C,6 | C,6- | %241
 C,6 | x6 | x6 | x6 | x6 | x6 | x6 | x6 | x6 | x6 | x6 | x6 | x6 |[K:treble] x6 | x6 | x6 | x6 | %258
 x6 | x6 | x6 | x6 | z2 .F x x x | x6 | x6 | x6 | x6 | x6 | x4[K:bass] x2 | x6 | x3[K:treble] x3 | %271
 x6 | x6 | x6 | x6 | x6 | x6 | x6 | x6 | x6 |[K:bass] x6 | x6 | x3[K:treble] x3 | x6 | x6 | x6 | %286
[K:bass] x6 | x6 | x6 | x6 | x6 | x6 | x6 | x3[K:treble] x3 |[K:bass] x3[K:treble] x3 | %295
[K:bass] x3[K:treble] x3 |[K:bass] x3[K:treble] x3 | x6 | x6 |[K:bass] E,2 ^F, ^G,2 A, | x6 | %301
[K:treble] x6 | x6 | x6 | x6 | x6 | x3[K:bass] x3 | x6 | x6 | x6 | x6 ||[K:A][K:treble] x6 | x6 | %313
 x6 | x6 | x6 | x6 | x6 | x6 | x6 | x6 | x6 | x6 | x6 | x6 | x6 | x6 | x6 | x6 | x6 | x6 | x6 | %332
 x6 | x6 | x6 | x6 | x6 | x6 | x6 | x6 | x6 | x6 | x6 | x6 | x6 |] %345
V:4
 x4 | x4 | x4 | x4 | x4 | x4 | F2 z2 | x4 | x4 | x4 | x4 | x4 | x4 | x4 | x4 | x4 | x4 | x4 | x4 | %19
 x4 | x4 | x4 | x4 | x4 | x4 | x4 | x4 | x4 | x3/4!8va(! x9/4!8va)! x | x4 | x4 | x4 | x4 | x4 | %34
 x4 | x4 ||[M:6/8] x6 | x6 | x6 | x6 | x6 | x6 | x6 | x6 | x6 | x6 | x6 | x6 | x6 | x6 | x6 | x6 | %52
 x6 | x6 | x6 | x6 | (B6 | c2) z x x x | (^G6 | A2) x x2 x | (^F6 | G2) z x x2 | x6 | C2 z z2 z | %64
 ^d z z d z z | e z z z2 z | (^G6 | A2) z z2 z | (^F6 | [EG]2) z x x2 | x6 | x6 | x6 | x6 | x6 | %75
 x6 | x6 | x6 | x6 | c2 x x x2 | x6 | x6 | x6 | x6 | x6 | x4!8va(! x2 | x3!8va)! x3 | x6 | x6 | %89
 x6 | x6 | x6 | x6 | x6 | x6 | x6 | x6 | x6 | x6 | x6 | x6 | x6 | x6 | x6 | x6 | x6 | x6 | x6 | %108
 x6 | x6 | x6 | x6 | x6 | x6 | x6 | x6 | x6 | x6 | x6 | x6 | x6 | x6 | x6 | x6 | x6 |!8va(! x6 | %126
 x!8va)! x5 | x6 | x6 | x6 | x6 | x6 | x6 | x6 | x6 | x6 | x6 | x6 | x6 | x6 | x6 | x6 | x6 | x6 | %144
 x6 | x6 | x6 | x6 | x6 | x6 | x6 |[M:2/4] x6 | x6 | x6 | x6 | x6 | x6 | x6 | x6 | x6 | x6 | x6 | %162
 x6 | x6 | x6 | x6 | x6 | x6 | x6 | x6 | x6 | x6 | x6 | x6 | x6 | x6 | x6 | x6 | x6 | x6 | x6 | %181
 x6 |[M:6/8] x6 | x6 | x6 | x6 |x(e/f/e/e'/)x(d/e/d/d'/) |x(c/d/c/c'/)x(B/c/B/b/) | %188
x(A/B/A/a/)x(G/A/G/g/) |x(^F/G/F/^f/)x=F/G/F/=f/ | x6 | x6 | x6 | x3!8va(! x3 | x6 | x6!8va)! | %196
 x6 | x6 | x6 | x6 | x6 | x6 | x6 | x6 | x6 | x6 | x6 | x6 | x6 | x6 | x6 | x6 | x6 | x6 | x6 | %215
 x6 | x6 | x6 | x6 |!8va(! x6 | x!8va)! x5 | x6 | x6 | x6 | x6 | x6 | x6 | x6 | x6 | x6 | x6 | x6 | %232
 x6 | x6 | x6 | x6 | x6 | x6 | x6 | x6 | x6 | x6 | x6 | x6 | x6 | x6 | x6 | x6 | x6 | x6 | x6 | %251
 x6 | x6 | x6 | x6 | x6 | x6 | x6 | x6 | x6 | x6 | x6 | x6 | x6 | x6 | x6 | x6 | x6 | x6 | x6 | %270
 x6 | x6 | x6 | x6 | x6 | x6 | x6 | x6 | x6 | x6 | x6 | x6 | x6 | x6 | x6 | x6 | x6 | x6 | x6 | %289
 x6 | x6 | x6 | x6 | x6 | x6 | x6 | x6 | x6 | x6 | x6 | x6 | x6 | x6 | x6 | c x x x2 x | x6 | x6 | %307
 x6 | x6 | x6 | x6 ||[K:A] x6 | x6 | x6 | x6 | x6 | x6 | x6 | x6 | x6 | x2 c d2 d/f/ | %321
 x2 c d2 d/f/ | x2 [^db] [eb]2 e/=g/ | x2 x x2 =g/b/ | x6 | x6 | x6 | x6 | x6 | x6 | x6 | x6 | x6 | %333
 x6 | x6 | x6 | x6 | x6 | x6 | x6 | x6 | x6 | x6 | x6 | x6 |] %345
V:5
 x4 | x4 | x4 | x4 | x4 | x4 |[K:bass] x4 | x4 |[K:treble] x4 | ^G4 | x4 | x4 | x4 | x4 | x4 | x4 | %16
[K:bass] x4 | x2[K:treble] x2 | x4 | x4 | x4 | x4 | x4 | x4 | x2[K:bass] x2 | x4 |[K:treble] x4 | %27
 x4 | x4 | x4 | x4 | x2[K:bass] x2 | x4 | x4 |[K:treble] x4 | x4 ||[M:6/8][K:bass] x6 | x6 | x6 | %39
 x6 | x6 | x6 | x6 | x6 | x6 | x6 | x6 | x6 | x6 | x6 | x6 | x6 | x6 | x6 | x6 | x6 | x6 | x6 | %58
 x6 | x6 | x6 | x6 | x6 | x6 |[K:treble] x6 |[K:bass] x6 | x6 | x6 | x6 |[K:treble] x6 | x6 | x6 | %72
 x6 | x6 | x6 | x6 | x6 | x6 | x6 | x6 | x6 | x6 | x6 | x6 |[K:bass] x6 | x6 | x6 | x6 | %88
[K:treble] x6 | x6 | x6 | x6 | x6 | x6 | x6 | x6 | x6 | x6 | x6 | x6 | x6 | x6 | x6 | x6 | x6 | %105
 x6 | x6 | x6 | x6 | x6 |[K:bass] x6 | x6 | x6 | x6 | x6 | x6 | x6 | x6 | x3[K:treble] x3 | %119
[K:bass] x3[K:treble] x3 |[K:bass] x6 | x6 | x[K:treble] x5 | x6 | x6 | x6 | x6 | x6 | %128
 x2[K:bass] x4 | x6 | x6 | x6 | x6 | x6 | x2[K:treble] x4 | x6 | x6 | x6 | x6 | x6 | x6 | x6 | x6 | %143
 x6 | x6 | x6 | x6 | x6 | x6 | x6 | x6 |[M:2/4] x6 | x6 | x6 | x6 | x6 | x6 | x6 | x6 | x6 | x6 | %161
 x6 | x6 | x6 |[K:bass] x6 | x6 | x6 | x6 | x6 | x6 | x6 | x6 | x6 | x6 | x6 | %175
 x!8vb(! x3!8vb)! x2 | x6 | x!8vb(! x3!8vb)! x2 | x6 | x!8vb(! x3!8vb)! x2 | x6 | %181
 x!8vb(! x3!8vb)! x2 |[M:6/8] x6 | x6 | x6 | x6 |[K:treble] x6 | x6 | x6 | x6 | x6 | x6 | x6 | x6 | %194
 x6 | x6 | x6 | x6 | x6 |[K:bass] x6 | x6 | x6 | x6 | x6 | x6 | x6 | x6 | x6 | x6 | x6 | x6 | x6 | %212
 x6 | x6 | x6 | x6 | x[K:treble] x5 | x6 | x6 | x6 | x6 | x6 | x2[K:bass] x4 | x6 | x6 | x6 | x6 | %227
 x6 | x2[K:treble] x4 | x6 | x6 | x6 | x6 | x6 |[K:bass] x6 | x6 | x6 | x6 | x6 | x6 | x6 | x6 | %242
 x6 | x6 | x6 | x6 | x6 | x6 | x6 | x6 | x6 | x6 | x6 | x6 |[K:treble] x6 | x6 | x6 | x6 | x6 | %259
 x6 | x6 | x6 | x6 | x6 | x6 | x6 | x6 | x6 | x4[K:bass] x2 | x6 | x3[K:treble] x3 | x6 | x6 | x6 | %274
 x6 | x6 | x6 | x6 | x6 | x6 |[K:bass] x6 | x6 | x3[K:treble] x3 | x6 | x6 | x6 |[K:bass] x6 | x6 | %288
 x6 | x6 | x6 | x6 | x6 | x3[K:treble] x3 |[K:bass] x3[K:treble] x3 |[K:bass] x3[K:treble] x3 | %296
[K:bass] x3[K:treble] x3 | x6 | x6 |[K:bass] x6 | x6 |[K:treble] x6 | x6 | x6 | x6 | x6 | %306
 x3[K:bass] x3 | x6 | x6 | x6 | x6 ||[K:A][K:treble] x6 | x6 | x6 | x6 | x6 | x6 | x6 | x6 | x6 | %320
 x6 | x6 | x6 | x6 | x6 | x6 | x6 | x6 | x6 | x6 | x6 | x6 | x6 | x6 | x6 | x6 | x6 | x6 | x6 | %339
 x6 | x6 | x6 | x6 | x6 | x6 |] %345
V:6
!pp! z2 !arpeggio![CEA] z | z2 !arpeggio![CEA] z | z2 !arpeggio![CEA] z | z2 !arpeggio![CFA] z | %4
 z2 !arpeggio![CEA] z | z2 !arpeggio![DB] z | z2 !arpeggio![Fd] z | z2 !arpeggio![EB] z | %8
 z2 !arpeggio![^D^F] z | z2 !arpeggio![B,EB] z | z2 !arpeggio![EAe] z | z2 !arpeggio![Fd] z | %12
 z2 !arpeggio![Ae] z | z2 !arpeggio![_Bg] z | z2 !arpeggio![Af] z | z2 !arpeggio![B,EB] z | %16
 (E F2 E-) | E z!pp!"^animato" .[Ace].[^GBe] | .[Bde].[Ace].[cea].[dfb] | %19
 [e^gb] z!p!!>(! (!>![=G-B]2 | [Gc]2)!>)!!p! ([E-^G]2 | [EA]2)!pp! .[CE].[B,E] | %22
 .[DE].[CE].[EA].[FB] | .[^GB] z[K:bass]!p!!>(! (!>![D,F,]2 | E,2)!>)!!p! [B,,B,]2- | %25
 [B,,B,][K:treble]!ppp!"^tranquillo" ([^GB][A^c][GB] | [^FA]4 | [E^G]) ([^gb][a^c'][gb] | %28
 [^fa]4-) | [fa]4 |[K:bass] ([^F,A,]4 | [E,^G,])[K:treble]!p! E- (3(E/F/E/(3=D/C/D/ | E2) z2 | %33
 .[EBe] z!<(! TE2!<)! |!f! z2 .D z | z2 .B, z ||[M:6/8]!f! !wedge![Acea]"_dim." z z C z z | %37
 C z z C z z |!mp! C z z C z z |!p! C z z C z z | C z z C z z | C z z C z z | C z z C z z | %43
 D z z D z z | D z z D z z | D z z z!p! D/E/F | z D/E/F z E/F/E/D/ | C/D/C/B,/A,!p! C z z | %48
 C z z C z z | C z z C z z | C z z C z z | [C^D] z z [CD] z z | E z z E z z | %53
 [CE] z z!pp! (!>![Ace]3 | !>![GBe]3 !>![^FA^d^f]3 | !>![GBeg]3) E z z | [DF] z z [DF] z z | %57
 [CE] z z [CE] z z | [D^G] z z [DG] z z | [EA] z z [EA] z z | [C^F] z z [CF] z z | (G3 A3- | %62
 A3 B3) | [EGc] z z [EGc] z z | ([^FB^d]6 | [GBe]2) z [Ge] z z | [B,D^G] z z [B,DG] z z | %67
 [CEA] z z [CEA] z z | [A,C^F] z z [A,CF] z z | [A,CE] z z ([^ce]3 | [df]3) .[DFB]2 z | %71
!pp! z .[EG]/.C/.[CE]/.G,/ .[CEG] z z | z .[EG]/.C/.[CE]/.G,/ .[CEG] z z | %73
 z .[EG]/.C/.[CE]/.G,/ .[CEG] z z | z .[EG]/.C/.[CE]/.G,/ .[CEG] z z | %75
 z .[FG]/.B,/.[B,F]/.G,/ .[B,FG] z z | z .[FG]/.B,/.[B,F]/.G,/ .[B,FG] z z | %77
 z .[FG]/.D/.[DF]/.G,/!pp! !>!B3 | !>!B3 !>!B3 | z .[EG]/.C/.[CE]/.G,/ .[CEG] z z | %80
 z .[EG]/.C/.[CE]/.G,/ .[CEG] z z | z .[EG]/.C/.[CE]/.G,/ .[CEG] z z | %82
 z .[EG]/.C/.[CE]/.G,/ .[CEG] z z | z .[F^G]/.D/.[DF]/.^G,/ .[DFG] z z | %84
 z .[EB]/.D/.[DE]/.B,/ .[DEB] z z | z .C.[CE] z .[CE].[CEA] | z .[Ace].[CEA] z .[^D^FB].[B,DF] | %87
 [B,E^G]!p! [B,E][B,E] [B,E][B,E][B,E] | [B,E][B,E][B,E] [B,E][B,E][B,E] | %89
 z2!p! z (!>!Tf3/2e/4f/4d) | z2 z!p! (!>!TF3/2E/4F/4 D) |!p! E[B,E][B,E] [B,E][B,E][B,E] | %92
 [B,E][B,E][B,E] [B,E][B,E][B,E] | z2 z (!>!Tf3/2e/4f/4d) | z2 z (!>!T[FA]3/2G/4A/4 [DF]) | %95
!p! (e6- | e3 ^f3 | ^g3) e3- | e3 [^d^f]3 | [e^g]6 | [e^g]6- | [eg] z z z2 z | z6 | !>!E3 !>!E3 | %104
 !>!E3!f! [ac'a'] z z |!p! C z z C z z | C z z C z z | C z z C z z | D z z D z z | D z z D z z | %110
 D z z z!p!!pp! D/E/F | z D/E/F z E/F/E/D/ | C/D/C/B,/A,!pp! C z z | C z z C z z |!p! G6- | G6 | %116
 F6- | F6 | E.E/.C/.A,/.C/ ([DAd]3 | [Ece]) E/C/A,/C/ ([DAd]3 | %120
 [Ece]) [CE]/A,/[CE]/A,/ [CE]/A,/[CE]/A,/[CE]/A,/ | %121
 [CE]/A,/[CE]/A,/[CE]/A,/ [CE]/A,/[CE]/A,/[CE]/A,/ | [CE]"_cresc." e2- e e2- | %123
 e [ce]2- [ce] [ce]2 | [Ece]6- | [Ece] z z!f! !wedge![^GBe^g] z z | %126
!f! !wedge![Acea] z z!ff! [ec'e'].[ec'e']/.[ec'e']/.[ec'e']/.[ec'e']/ | %127
 .[ec'e'].[ec'e'].[ec'e'] .[ec'e'].[ec'e'].[ec'e'] | %128
 .[ec'e']/.[ec'e']/.[ec'e'] z [cac'].[cac']/.[cac']/.[cac']/.[cac']/ | %129
 [ac'].[ac'].[ac'] [ac'].[ac'].[ac'] | .[cac']/.[cac']/.[cac'] z ([^gd'^g']3 | %131
 [ac'a']) z z ([^gd'^g']3 | [ac'a']) z [ac'e'a'] z2 [ac'e'a'] | z2 !>![ac'a'] z2 !>![^fd'^f'] | %134
 [gd'g'] z z!p! [db][db]/[db]/[db]/[db]/ | [db][db][db] [db][db][db] | %136
 [db]/[db]/[db]!f! x [dd'].d'/.d'/.d'/.d'/ | .f'._e'.d' .b.a.g | b/a/g z ([Ac^f]3 | %139
 [Bdg]) z z ([Ac^f]3 |!p! [Bdg]) z [Bdg] z2 [Bdg] | z2 [Bdg] z2 [Bdg] | %142
[I:staff +1] (B,/A,/G,/[I:staff -1]D/C/B,/ F/) z/ z z | (d/c/B/f/e/d/ b/) z/ z z |!p! [DFB]6 | %145
 [DFB]6 | [DFB]6- |!p! [DFB]6- | [DFB] z z z2 z | z6 | %150
!pp! z .[G,CE]/.[G,CE]/.[G,CE]/.[G,CE]/ .[G,CE] z z | %151
 z .[G,CE]/.[G,CE]/.[G,CE]/.[G,CE]/ .[G,CE] z z | z !//!.[_A,B,DF]2 .[A,B,DF] z z | %153
 z !//!.[_A,B,DF]2 .[A,B,DF] z z | z !//!.[G,CE]2 .[G,CE] z z | z !//!.[G,CE]2 .[G,CE] z z | %156
 z !//!.[_A,B,DF]2 .[A,B,DF] z z | z !//!.[_A,B,DF]2 .[A,B,DF] z z | z !//!.[G,CE]2 .[G,CE] z z | %159
 z !//!.[G,CE]2 .[G,CE] z z | z !//!.[_A,B,DF]2 .[A,B,DF] z z | z !//!.[_A,B,DF]2 .[A,B,DF] z z | %162
 z !//!.[G,CE]2 .[G,CE] z z | z !//!.[G,CE]2 .[G,CE] z z | z !//!.[C^FA]2 .[CFA] z z | %165
 z !//!.[A,B,^D^F]2 .[A,B,DF] z z | z !//!.[B,E^G]2 .[B,EG] z z | z !//!.[B,E^G]2 .[B,EG] z z | %168
 z !//!.[A,^D^F]2 .[A,DF] z z | z !//!.[A,^D^F]2 .[A,DF] z z | z !//!.[B,E^G]2 .[B,EG] z z | %171
 z !//!.[B,E^G]2 .[B,EG] z z | z !//!.[A,^D^F]2 .[A,DF] z z | z !//!.[A,^D^F]2 .[A,DF] z z | %174
 z !//!.[B,E^G]2 .[B,EG] z z | z !//!.[B,E^G]2 .[B,EG] z z | z !//!.[^A,G^A]2 .[A,GA] z z | %177
 z !//!.[^A,G^A]2 .[A,GA] z z | z !//!.[CAc]2 .[CAc] z z | z !//!.[CAc]2 .[CAc] z z | %180
 z !//!.[Ac^f]2 .[Acf] z z | z !//!.[Ac^f]2 .[Acf] z z |!p! !>![B,E][B,E] z !>![B,E][B,E] z | %183
 !>![CE][CE] z !>![C^D^F][CDF] z |!p! !>![B,E][B,E] z !>![B,E][B,E] z | %185
 !>![CE][CE] z !>![C^D^F][CDF] z |!p! z .[^GBe] z z .[FAd] z | z .[EGc] z z .[DFB] z | %188
 z .[CEA] z z .[B,DG] z | z .[A,D^F] z z .[A,C=F] z | %190
 .[^G,B,E] z z z!pp! .[=G^A]/.[GA]/.[GA]/.[GA]/ | .[^GB] z z z!pp! .[=G^A]/.[GA]/.[GA]/.[GA]/ | %192
 .[^GB] z z z2 z | z6 | z[I:staff +1] .B,.^G, .E,.B,,.^G,, | %195
"_non legato" E,,/F,,/^F,,/G,,/^G,,/A,,/ ^A,,/B,,/C,/^C,/D,/^D,/ | %196
"_cresc." E,/F,/^F,/G,/^G,/A,/ ^A,/B,/[I:staff -1]C/^C/D/^D/ | E/F/^F/G/^G/A/ ^A/B/c/^c/d/^d/ | %198
 e z z!ff! !wedge![ac'a'] z z |!p! z .[CAc]/.[CAc]/.[CAc]/.[CAc]/ .[CAc] z z | %200
 z !//!.[CAc]2 .[CAc] z z | z !//!.[CAc]2 .[CAc] z z | z !//!.[D_Bd]2 .[DBd] z z | %203
 z !//!.[D_Bd]2 .[DBd] z z | z !//!.[D=Bd]2 z!mp! D/E/F | z D/E/F z E/F/E/D/ | C/D/C/B,/A, z2 z | %207
!pp! z !//!.[Ece]2 .[Ece] z z | z !//!.[E^ce]2 .[Ece] z z | z !//!.[G^cg]2 .[Gcg] z z | %210
 z !//!.[Fdf]2 .[Fdf] z z | z !//!.[Ff]2 .[Ff] z z | %212
!p! !tenuto![Ece] E/C/A,/C/ z (3(d/f/a/!wedge!c') | !tenuto![Ece] E/C/A,/C/ z (3(d/f/a/!wedge!c') | %214
 [Ece] [CE]/A,/[CE]/A,/ [CE]/A,/[CE]/A,/[CE]/A,/ | %215
 [CE]/A,/[CE]/A,/[CE]/A,/ [CE]/A,/[CE]/A,/[CE]/A,/ | [CE] e2- e e2- | e [ce]2- [ce] [ce]2 | %218
 [Ece]6- | [Ece] z z!f! !wedge![^GBe^g] z z | %220
!f! [Acea] z z!ff! [ec'e']!wedge![ec'e']/!wedge![ec'e']/!wedge![ec'e']/!wedge![ec'e']/ | %221
 !wedge![ec'e']!wedge![ec'e']!wedge![ec'e'] !wedge![ec'e']!wedge![ec'e']!wedge![ec'e'] | %222
 !wedge![ec'e']/!wedge![ec'e']/!wedge![ec'e'] z [cac']!wedge![cac']/!wedge![cac']/!wedge![cac']/!wedge![cac']/ | %223
 [cac'][cac'][cac'] [cac'][cac'][cac'] | !wedge![cac']/!wedge![cac']/[cac'] z ([^gd'^g']3 | %225
 [ac'a']) z z ([^gd'^g']3 | [ac'a']) z !>![ac'a'] z2 !>![ac'e'a'] | z2 !>![ac'e'a'] z2 !>![ae'a'] | %228
 [be'_b'] z z!p! .[e_b].[eb]/.[eb]/.[eb]/.[eb]/ | .[e_b].[eb].[eb] .[eb].[eb].[eb] | %230
 .[e_b]/.[eb]/.[eb] z z2 (^f | ._b/).a/.g (d .g/).f/.e (=B | .e/).d/.c z z2 (B | .e/).d/.c z z2 z | %234
!pp! [G,_B,E]6- | [G,B,E]6 | !>![=B,DF-]6 | [A,CF]3 [A,^D]3 | [G,_B,E]6- | [G,B,E]6 | [_A,=B,DF]6 | %241
 [=A,CF]6 |!pp! ([F_B]3 [D^G]3 | [CA]3 [Ec]3 | [F_B]3 [D^G]3) |!<(! ([CA]3 [C_EA]3-)!<)! | %246
!p! [CEA]6- | [CEA]3 [_B,DG]3- | [B,DG]6 |"^dim." F6 |!pp! F6- | (F6 | G6 | E6) | %254
 [F,A,F] .[FA]/.C/.[FA]/.C/ .[FA] z z | z .[FA]/.C/.[FA]/.C/ .[FA] z z | %256
 z .[FA]/.C/.[FA]/.C/ .[FA] z z | z .[FA]/.C/.[FA]/.C/ .[FA] z z | %258
 z .[E_B]/.C/.[EB]/.C/ .[EB] z z | z .[E_B]/.C/.[EB]/.C/ .[EB] z z | %260
 z .[G_B]/.E/.[GB]/.E/!pp! !>![GBe]3 | !>![^G=Be]3 !>![=G_Be]3 | %262
 .[FAf] .[FA]/.C/.[FA]/.C/ z!p! c'>c' | (Td'2 c') z a>a | (T_b2 a) z f>f | %265
 (Tg2 f) z (.A/._B/.c/.A/) | (_B !^!^C2) z g>g |"^♭" (Ta2 g) z e>e | (Tg2 f) .[dfa] z z | %269
 .[ad'f'] [FA]/D/[DF]/A,/ (D2 ^D |!p! !>![B,E])[B,E] z !>![B,E][B,E] z | %271
 !>![CE][CE] z !>![C^D^F][CDF] z | [B,E][B,E] z [B,E][B,E] z | [CE][CE] z [C^D^F][CDF] z | %274
!p! z [^gb] z z [fa] z | z [e=g] z z [df] z | z [ce] z z [Bd] z | z [Ac] z z [Ac] z | %278
 [Ee] z z z2 z | z2 z!<(! E/^G/B/e/B/G/!<)! |!f! E/^G/B/e/B/G/ E/G/B/e/B/G/ | %281
 E/^G/B/e/B/G/ E/G/B/e/B/G/ | E/^G/B/e/B/G/ E z2 | z6 | z6 | z2 z!f!{/ef} .e.^d.e | %286
 .=d z c- c2 B- | B2 A{/ab} .a.^g.a | .=g z f- f2 e- | (e2 d){/d'e'} .d'.^c'.d' | %290
 .=c' z _b- b2 a- | a^g=b z d'/e'/f' | z d'/e'/f' z d'/e'/f' | c'/d'/c'/b/a{/ef} .e.^d.e | %294
 .=d z c- c2 B- | B2 A{/b} .[Aa].[^G^g].[Aa] | .[=G=g] z [Ff]- [Ff]2 [Ee]- | %297
 ([Ee]2 [Dd]){/e'} .[dd'].[^c^c'].[dd'] | .[=c=c'] z [_B_b]- [Bb]2 [Aa] | %299
!p! [CE]/A,/[CE]/A,/[CE]/A,/ [CE]/A,/[CE]/A,/[CE]/A,/ | %300
 [CE]/A,/[CE]/A,/[CE]/A,/ [CE]/A,/[CE]/A,/[CE]/A,/ | [CE]"_cresc." [^D^d][=D=d] [^C^c]=cB | %302
 _BA^G =G^F=F |!f! E z z z2 z | z EF ^FG^G | AA_B ^GA^F | =GE=F !>!F!>!E!>!^D | %307
!f! !wedge![eac'e'] z z z2 z | z6 |!mp! [eabe'] z z z2 z |!p! [e^gbe'] z z z2 z || %311
[K:A]!p! A,3 z2 [A^d] | z2 [A=d] z2 [Ac] | z2 [AB] z2 [Af] | z2 [GB] z2 [GB] | %315
 [Ac] z z!p! z ^d'/a/^d/d'/ | z =d'/a/d/d'/ z c'/a/c/c'/ | z b/a/B/b/ z f'/a/f/f'/ | %318
 z b/g/B/b/ z e'/g/e/e'/ | [ec'e'] z z z2 z |!p! !>![A,CE]3 F/D/F/A/d | !>![A,CE]3 F/D/F/A/d | %322
 !>![B,^DF]3 =G/E/G/B/e | !>![=DFA]3 B/=G/B/d/=g | C3 .D.E z | .^E.F z .[=EG].[E^A] z | %326
"_cresc." [CE^A][B,EB] z [Ec][EGd] z | [FA^d][GB^e] z [FBf] z z |!f! !>![Aca]!p! z z [CE][CE][CE] | %329
!<(! [CE][CE][CE] [CE][CE][CE]!<)! |!f! [Acea] z z [Acea] z z | [^Ace^a] z z [Acea] z z | %332
!f! [Begb]!p! z z z2 z | .[Beg]!<(! E/F/G/A/ B/c/d/e/f/g/!<)! |!f! .[Aca] z z!pp! [^DG^B] z z | %335
 [EGc] z z [B,EG] z z | [CEA] z z!p!"_cresc." [^dg^b] z z | [egc'] z z E z z |!mf! [CEA] z z z2 z | %339
"_cresc." [CEA] z z z2 z | [CEAc] z z z2 z | [EAce] z z A,/C/E/A/c/e/ | %342
!f! [Aa]/(G/=G/F/=F/E/ ^D/=D/C/=C/B,/_B,/ | A,) z z!ff! [CAc] z z | A,2 z !fermata!z2 z |] %345
V:7
 A,, z z2 | A,, z z2 | A,, z z2 | A,, z z2 | A,, z z2 | G,, z G, z | D, z A, z | B,, z ^G, z | %8
 A,, z z2 | D, z z2 | A,, z A, z | [A,,A,] z A, z | [A,,A,] z !arpeggio![CE] z | %13
 [G,,G,] z [G,D] z | [D,,D,] z D z | [B,,,B,,] z z2 | [A,,,A,,][F,,F,][D,,D,][E,,E,] | %17
 [A,,,A,,] z z2 | z4 | z2 ([G,DF]2 | [CE]2) ([E,B,D]2 | [A,C]2) .A,.^G, | .B,.A,.C.D | %23
 .E z (G,,,2 | C,,2) (F,,,2 | E,,,) z z2 | z2 (B,2 | E) z z2 |[K:treble] z2 B2- | B4 | %30
[K:bass] ([B,,,B,,]4 | E,,) z ([F,A,]2 | [C,G,]2 [F,A,]2) | .[E,,,E,,] z z2 | .E z z2 | .C z z2 || %36
[M:6/8] !wedge![A,,,E,,A,,] z z [E,A,] z z | [E,A,] z z [E,A,] z z | [E,A,] z z [E,A,] z z | %39
 [E,A,] z z [E,A,] z z | [E,A,] z z [E,A,] z z | [E,A,] z z [E,A,] z z | [E,A,] z z [E,A,] z z | %43
 [F,_B,] z z [F,B,] z z | [F,_B,] z z [F,B,] z z | [F,=B,] z z [A,,,A,,]2 z | %46
 [A,,,A,,]2 z [A,,,A,,]2 z | [A,,,A,,]2 z [E,A,] z z | [E,A,] z z [E,A,] z z | %49
 [E,A,] z z [E,A,] z z | [E,A,] z z [E,A,] z z | [^F,A,] z z [F,A,] z z | [E,B,] z z [E,B,] z z | %53
 A, z z x2 z | [B,,,B,,]2 z [B,,,B,,]2 z | x2 z [G,B,] z z | G, z z G, z z | G, z z G, z z | %58
 B, z z B, z z | C z z C z z | A, z z A, z z | [G,,,G,,] z z [G,,,G,,] z z | %62
 [G,,,G,,] z z [G,,,G,,] z z | [C,,C,] z z C z z | [B,,B,-]6 | B,2 z [E,B,] z z | %66
 [E,,E,] z z [E,,E,] z z | A,, z z A,, z z | [D,,D,] z z [D,,D,] z z | [G,,G,] z z z2 z | %70
 z2 z .[G,,G,]2 z | [C,,C,]2 z z .C,.G,, | [C,,C,]2 z z .C,.G,, | [C,,C,]2 z z .C,.G,, | %74
 [C,,C,] z z z .C,.G,, | [D,,D,] z z z .D,.G,, | [D,,D,] z z z .D,.G,, | %77
 [G,,G,] z z z .G,,.[G,,,G,,] | z .G,,.[G,,,G,,] z .G,,.[G,,,G,,] | .[C,,C,] z z z .C,.G,, | %80
 .[C,,C,] z z z .C,.G,, | .[C,,C,] z z z .C,.G,, | .[C,,C,] z z z .C.C, | %83
 .[B,,,B,,] z z z .B,,.[B,,,B,,] | .[^G,,,^G,,] z z z .E,.E,, | x .[E,A,].A, x .A, x | %86
 [^F,,,^F,,] z z [B,,,B,,] z z | [E,,E,] [E,^G,][E,G,] [E,G,][E,G,][E,G,] | %88
 [E,^G,][E,G,][E,G,] [E,G,][E,G,][E,G,] | [B,,,B,,]3 z .B,.B,, | z2 z z .B,,.[B,,,B,,] | %91
 E,, [E,^G,][E,G,] [E,G,][E,G,][E,G,] | [E,^G,][E,G,][E,G,] [E,G,][E,G,][E,G,] | %93
 [B,,,B,,]3 z .B,.B,, | z2 z z .B,,.[B,,,B,,] | [E,,E,] z z [E,E] z z | [E,,E,] z z [B,,,B,,] z z | %97
 [E,,E,] z z [A,,A,] z z | [E,,E,] z z [B,,,B,,] z z | [E,,E,] z z [E,,E,] z z | [E,,E,] z z z2 z | %101
 z6 | z6 | z6 | z2 z [A,,,E,,A,,] z z | [E,A,] z z [E,A,] z z | [E,A,] z z [E,A,] z z | %107
 [E,A,] z z [E,A,] z z | [F,_B,] z z [F,B,] z z | [F,_B,] z z [F,B,] z z | %110
 [F,=B,] z z [A,,,A,,]2 z | [A,,,A,,]2 z [A,,,A,,]2 z | [A,,,A,,]2 z [E,A,] z z | %113
 [E,A,] z z [E,A,] z z | [A,^C] z z [A,C] z z | [A,^C] z z [A,C] z z | [F,_B,D] z z [F,B,D] z z | %117
 [F,_B,D] z z [A,C] z z | [A,C] z z z .F,.F,, | .[E,,E,] z z z .F,.F,, | %120
 E,,/E,/E,,/E,/E,,/E,/ E,,/E,/E,,/E,/E,,/E,/ | E,,/E,/E,,/E,/E,,/E,/ E,,/E,/E,,/E,/E,,/E,/ | %122
 [E,,E,] ^D=D ^C[=C,=C][B,,B,] | [_B,,_B,][A,,A,][^G,,^G,] [=G,,=G,][^F,,^F,][=F,,=F,] | E,6- | %125
 E, z z !wedge![E,,B,,E,] z z | %126
 !wedge![A,,,E,,A,,] z z [A,,,E,,A,,].[A,,,E,,A,,]/.[A,,,E,,A,,]/.[A,,,E,,A,,]/.[A,,,E,,A,,]/ | %127
 .[A,,,E,,A,,].[A,,,E,,A,,].[A,,,E,,A,,] .[A,,,E,,A,,].[A,,,E,,A,,].[A,,,E,,A,,] | %128
 .[A,,,E,,A,,]/.[A,,,E,,A,,]/.[A,,,E,,A,,] z [A,,,E,,A,,].[A,,,E,,A,,]/.[A,,,E,,A,,]/.[A,,,E,,A,,]/.[A,,,E,,A,,]/ | %129
 [A,,,E,,A,,].[A,,,E,,A,,].[A,,,E,,A,,] [A,,,E,,A,,].[A,,,E,,A,,].[A,,,E,,A,,] | %130
 .[A,,,E,,A,,]/.[A,,,E,,A,,]/.[A,,,E,,A,,] z[K:treble] ([FBd]3 | [Ece]) z (A, ([FBd]3) | %132
 [Ece]) z [Ece] z2 [Ece] | z2 !>![Ece] z2 !>![DAd] | !>![G,B,DG] z z GG/G/G/G/ | GGG GGG | %136
 G/G/G [G,D] z2 z | z6 | z2 z _E z z | z2 z _E z z | B,/A,/G, z B,/A,/G, z | %141
 B,/A,/G, z B,/A,/G, z | x6 | z6 | z2 z z[K:bass] .G,,.[G,,,G,,] | z2 z z .G,,.[G,,,G,,] | z6 | %147
 G,6- | G, z z z2 z | z6 | .[C,,C,] z z z .C,.C,, | .C, z z z .C,,.C, | .C,, z z z .C,.C,, | %153
 .C, z z z .C,,.C, | .C,, z z z .C,.C,, | .C, z z z .C,,.C, | .C,, z z z .C,.C,, | %157
 .C, z z z .C,,.C, | .C,, z z z .C,.C,, | .C, z z z .C,,.C, | .C,, z z z .C,.C,, | %161
 .C, z z z .C,,.C, | .C,, z z z .C,.C,, | .C, z z z .C,,.C, | .A,, z z z .A,.A,, | %165
 .B,, z z z .B,.B,, | .E, z z z .E,.E,, | .E, z z z .E,,.E, | .E,, z z z .E,.E,, | %169
 .E, z z z .E,,.E, | .E, z z z .E,.E,, | .E, z z z .E,,.E, | .E,, z z z .E,.E,, | %173
 .E, z z z .E,,.E, | .E,, z z z .E,.E,, | .E, z z z .E,,.E, | .E,, z z z .E,.E,, | %177
 .E, z z z .E,,.E, | .F,, z z z .F,.F,, | .F, z z z .F,,.F, | .E,, .[A,C^F] z z .E,.E,, | %181
 .E,.[A,C^F] z z .E,,.E, | !>![E,^G,][E,G,] z !>![E,G,][E,G,] z | %183
 !>![E,A,][E,A,] z !>![E,A,E][E,A,E] z | !>![E,^G,][E,G,] z !>![E,G,][E,G,] z | %185
 !>![E,A,][E,A,] z !>![E,A,E][E,A,E] z | ([E,,E,]3 [F,,F,]3 | [G,,G,]3 [^G,,^G,]3 | %188
 [A,,A,]3 [B,,B,]3 | D,3 ^D,3 | E,) z z z .C/.C/.C/.C/ | .E z z z .C/.C/.C/.C/ | .E z z z2 z | z6 | %194
 z6 | z6 | z6 | z6 | z2 z !wedge![A,,,E,,A,,] z z | [A,,,A,,] A,,/E,/A,,/E,/ A,, z z | %200
 [A,,,A,,] A,,/E,/A,,/E,/ A,, z z | [A,,,A,,] A,,/E,/A,,/E,/ A,, z z | %202
 [A,,,A,,] A,,/F,/A,,/F,/ A,, z z | [A,,,A,,] A,,/F,/A,,/F,/ A,, z z | %204
 [A,,,A,,] A,,/E,/A,,/E,/ [A,,,A,,]2 z | [A,,,A,,]2 z [A,,,A,,]2 z | [A,,,A,,]2 z [A,,,A,,] z z | %207
 [A,,,A,,] A,,/E,/A,,/E,/ [A,,,A,,] z z | [A,,,A,,] A,,/E,/A,,/E,/ A,, z z | %209
 [A,,,A,,] A,,/E,/A,,/E,/ [A,,,A,,] z z | [D,,D,] D,/_B,/D,/B,/ D, z z | %211
 [D,,D,] z z [^D,,^D,] z z | .[E,,E,] z z z .F,.F,, | .[E,,E,] z z z .F,.F,, | %214
 [E,,E,] E,,/E,/E,,/E,/ E,,/E,/E,,/E,/E,,/E,/ | E,,/E,/E,,/E,/E,,/E,/ E,,/E,/E,,/E,/E,,/E,/ | %216
 [E,,E,] ^D=D ^C[=C,=C][B,,B,] | [_B,,_B,][A,,A,][^G,,^G,] [=G,,=G,][^F,,^F,][=F,,=F,] | E,6- | %219
 E, z z [E,,B,,E,] z z | %220
 [A,,,E,,A,,] z z [A,,,E,,A,,]!wedge![A,,,E,,A,,]/!wedge![A,,,E,,A,,]/!wedge![A,,,E,,A,,]/!wedge![A,,,E,,A,,]/ | %221
 [A,,,E,,A,,][A,,,E,,A,,][A,,,E,,A,,] [A,,,E,,A,,][A,,,E,,A,,][A,,,E,,A,,] | %222
 !wedge![A,,,E,,A,,]/!wedge![A,,,E,,A,,]/[A,,,E,,A,,] z [A,,,E,,A,,]!wedge![A,,,E,,A,,]/!wedge![A,,,E,,A,,]/!wedge![A,,,E,,A,,]/!wedge![A,,,E,,A,,]/ | %223
 [A,,,E,,A,,][A,,,E,,A,,][A,,,E,,A,,] [A,,,E,,A,,][A,,,E,,A,,][A,,,E,,A,,] | %224
 !wedge![A,,,E,,A,,]/!wedge![A,,,E,,A,,]/[A,,,E,,A,,] z[K:treble] ([FBd]3 | [Ece]) z (A, ([FBd]3) | %226
 [Ece]) z !>![Ece] z2 !>![Ece] | z2 !>![Ece] z2 !>![Ece] | %228
 !>![Ece] z z .[CG].[CG]/.[CG]/.[CG]/.[CG]/ | .[CG].[CG].[CG] .[CG].[CG].[CG] | %230
 .[CG]/.[CG]/.[CG] z z2 z | z6 | z2 (B, .E/).D/.C z | z6 |[K:bass] z .C,,/.C,/.C,,/.C,/ .C,, z z | %235
 z6 | z!pp! .C,,/.C,/.C,,/.C,/ .C,, z z | z!pp! .C,,/.C,/.C,,/.C,/ .C,, z z | %238
 z .C,,/.C,/.C,,/.C,/ .C,, z z | z6 | z .C,,/.C,/.C,,/.C,/ .C,, z z | %241
 z .C,,/.C,/.C,,/.C,/ [A,,,A,,]3 | ([D,,D,]3 [E,,E,]3 | [F,,F,]3 [C,,C,]3 | [D,,D,]3 [E,,E,]3) | %245
 ([F,,F,]3 [^F,,^F,]3) | [_B,,,_B,,]6- | [B,,,B,,]6 | ([_B,,,_B,,]6- | [B,,,B,,]3 [=B,,,=B,,]3 | %250
 [C,,C,]6-) | [C,,C,]6 | [C,,C,]6- | [C,,C,]6 | F,,"^leggierissimo" z z z .F,.C, | %255
 .[F,,F,] z z z .F,.C, | .[F,,F,] z z z .F,.C, | .[F,,F,] z z z .F,.C, | .[G,,G,] z z z .G,.C, | %259
 .[G,,G,] z z z .G,.C, | .[C,C] z z z .C.C, | z .C.C, z .C.C, | .[F,,F,] z z z .F,.C, | %263
 .[F,,F,] z z z .F,.C, | .[F,,F,] z z z .F,.C, | .[F,,F,] z z z .F,,.F, | .[E,,E,] z z z .E,.E,, | %267
 .[^C,,^C,] z z z .A,.A,, | .[D,,D,] z .D, .C,, z .C, | .B,,, z z [B,,,B,,]3 | %270
 [E,^G,][E,G,] x !>![E,G,][E,G,] z | !>![E,A,][E,A,] z !>![E,A,E][E,A,E] z | %272
 [E,^G,][E,G,] z [E,G,][E,G,] z | [E,A,][E,A,] z [E,A,E][E,A,E] z | ([E,,E,]3 [F,,F,]3 | %275
 [G,,G,]3 [^G,,^G,]3 | [A,,A,]3 [B,,B,]3 | D,3 ^D,3 | E,) z z z2 z | z6 | %280
[K:bass] E,,/^G,,/B,,/E,/B,,/G,,/ E,,/G,,/B,,/E,/B,,/G,,/ | %281
 E,,/^G,,/B,,/E,/B,,/G,,/ E,,/G,,/B,,/E,/B,,/G,,/ | [E,,E,] z z z2 z | z6 | z6 | z6 | %286
 A,,2 z[K:treble] !arpeggio![CEA]2 z |[K:bass] A,,2 z[K:treble] !arpeggio![CEA]2 z | %288
[K:bass] A,,2 z[K:treble] !arpeggio![CEA]2 z |[K:bass] A,,2 z[K:treble] !arpeggio![_B,DF_B]2 z | %290
[K:bass] A,,2 z[K:treble] !arpeggio![_B,DF_B]2 z |[K:bass] A,,2 z[K:treble] !>!B3 | !>!B3 !>!B3 | %293
 C/D/C/B,/A, z2 z |[K:bass] A,,2 z z2 z | A,,2 z z2 z | A,,2 z z2 z | [D,,D,]2 z .D.^C.D | %298
 [D,,D,]2 z [^D,,^D,]3 | E,,/E,/E,,/E,/E,,/E,/ E,,/E,/E,,/E,/E,,/E,/ | %300
 E,,/E,/E,,/E,/E,,/E,/ E,,/E,/E,,/E,/E,,/E,/ | E,, ^D,=D, ^C,[=C,=C][B,,B,] | %302
 [_B,,_B,][A,,A,][^G,,^G,] [=G,,=G,][^F,,^F,][=F,,=F,] | [E,,E,] z z z2 z | z E,F, ^F,G,^G, | %305
 A,A,_B, ^G,A,^F, | =G,E,=F,"^rit." F,E,^D, | %307
"^a tempo" [E,,,E,,]!f! E,,,/E,,/"_dim."E,,,/E,,/ E,,, E,,,/E,,/E,,,/E,,/ | %308
 .E,,,.E,,,.E,,, .E,,,.E,,,.E,,, | [E,,E,]!p! E,,,/E,,/E,,,/E,,/ E,,, z z | %310
 [E,,E,]!pp! E,,,/E,,/E,,,/E,,/ E,,, z z ||[K:A] !arpeggio![A,,,A,,]2 z F3 | =F3 E3 | ^D3 B,3 | %314
 E3 E,3 | A,3[K:treble] ([Ff]3 | [=F=f]3 [Ee]3 | [^D^d]3 [B,B]3 | [Ee]3 [E,E]3 | [A,A]) z z z2 z | %320
[K:bass] (!>![A,,,A,,]3 [D,,D,]3) | (!>![A,,,A,,]3 [D,,D,]3) | ([B,,,B,,]3 [E,,E,]3) | %323
 ([=D,,=D,]3 [=G,,=G,]3) | C,3 .D,.E, z | .[^E,B,].[F,B,] z .G,.A, z | %326
 [^^F,,^^F,][G,,G,] z [A,,A,][B,,B,] z | [^B,,^B,][C,C] z [D,D] z z | %328
 !>![E,A,CE] [E,A,CE][E,A,CE] [E,A,][E,A,][E,A,] | [E,A,][E,A,][E,A,] [E,A,][E,A,][E,A,] | %330
 [E,CE] z z [E,CE] z z | [E,CE] z z [E,CE] z z | [E,DE] E,,,/E,,/E,,,/E,,/ E,,, z z | %333
 .[E,,B,,E,] z z z2 z | .[A,,,E,,A,,] z z [G,,G,] z z | [C,,C,] z z [E,,E,] z z | %336
 [A,,A,] z z [G,,G,] z z | [C,,C,] z z [E,,E,] z z | A,, E,,/A,,,/E,,/A,,,/ .E,,.A,,,.E,, | %339
 .A,, E,,/A,,,/E,,/A,,,/ .E,,.A,,,.E,, | .[E,,E,] E,,/A,,,/E,,/A,,,/ .E,,.A,,,.E,, | %341
 .[C,,C,] E,,/A,,,/E,,/A,,,/ .E,,.A,,,.E,, | [A,A]/(G,/=G,/F,/=F,/E,/ ^D,/=D,/C,/=C,/B,,/_B,,/ | %343
 A,,) z z [A,,E,A,] z z | [A,,,A,,]2 z !fermata!z2 z |] %345
V:8
 x4 | x4 | x4 | x4 | x4 | x4 | D4- | D4 | x4 | x4 | x4 | x4 | x4 | x4 | x4 | x4 | (C2 D2) | %17
 C x x2 | x4 | x4 | x4 | x4 | x4 | x2[K:bass] x2 | x x x2 | x[K:treble] x3 | x4 | x4 | x4 | x4 | %30
[K:bass] x4 | x[K:treble] x3 | x4 | x4 | x4 | x4 ||[M:6/8] x6 | x6 | x6 | x6 | x6 | x6 | x6 | x6 | %44
 x6 | x6 | x6 | x6 | x6 | x6 | x6 | x6 | x6 | x6 | x6 | x6 | x6 | x6 | x6 | x6 | x6 | %61
 [CE] z z [^CE] z z | [DF] z z [DF] z z | x6 | x6 | x6 | x6 | x6 | x6 | x6 | x6 | x6 | x6 | x6 | %74
 x6 | x6 | x6 | x x x z .G, z | z .G, z z .G, z | x6 | x6 | x6 | x6 | x x x z B, z | x6 | x6 | %86
 x x2 A3 | x6 | x6 | [A,B,DF]6- | [A,B,DF]6 | x6 | x6 | [A,B,DF]6- | [A,B,DF]6 | e6- | e3 ^d3 | %97
 e3 E3- | E3 ^F3 | ^G6 | ^G6- | G x x x2 x | x6 | x6 | x6 | x6 | x6 | x6 | x6 | x6 | x6 | x6 | x6 | %113
 x6 | x6 | x6 | x6 | x6 | x6 | x6 | x6 | x6 | x ^d=d ^c=cB | _BA^G =G^F=F | x6 | x6 | x6 | x6 | %128
 x6 | x6 | x6 | x6 | x6 | x6 | x6 | x6 | x6 | x6 | x6 | x6 | x6 | x6 | x6 | x6 | z2 z z .G, z | %145
 z2 z z .G, z | x6 | x6 | x6 | x6 | x6 | x6 | x6 | x6 | x6 | x6 | x6 | x6 | x6 | x6 | x6 | x6 | %162
 x6 | x6 | x6 | x6 | x6 | x6 | x6 | x6 | x6 | x6 | x6 | x6 | x6 | x6 | x6 | x6 | x6 | x6 | x6 | %181
 x6 | x6 | x6 | x6 | x6 | x6 | x6 | x6 | x6 | x6 | x6 | x6 | x6 | x6 | x6 | x6 | x6 | x6 | x6 | %200
 x6 | x6 | x6 | x6 | x6 | x6 | x6 | x6 | x6 | x6 | x6 | x6 | x6 | x6 | x6 | x6 | x ^d=d ^c=cB | %217
 _BA^G =G^F=F | x6 | x6 | x6 | x6 | x6 | x6 | x6 | x6 | x6 | x6 | x6 | x6 | x6 | x6 | x6 | x6 | %234
 x6 | x6 | x6 | x6 | x6 | x6 | x6 | x6 | x6 | x6 | x6 | x6 | x6 | x6 | x6 | G,3 ^G,3 | [A,-C]6 | %251
 [A,D-]6 | [_B,D]6 | [G,_B,]6 | x6 | x6 | x6 | x6 | x6 | x6 | x6 | x6 | x6 | x6 | x6 | x6 | x6 | %267
 x6 | x6 | x2 x [F,A,]3 | x6 | x6 | x6 | x6 | [ee']3 [dd']3 | [cc']3 [Bb]3 | [Aa]3 [Gg]3 | %277
 [^F^f]3 [=F=f]3 | x6 | x6 | x6 | x6 | x6 | x6 | x6 | x6 | x6 | x6 | x6 | x6 | x6 | x2 x !>!^g3 | %292
 !>!^g3 !>!g3 | x6 | x6 | x6 | x6 | x6 | z2 z [A,CF]2 z | x6 | x6 | x6 | x [CE]2 x C2 | x6 | x6 | %305
 x6 | x6 | x6 | x6 | x6 | x6 ||[K:A] x6 | x6 | x6 | x6 | x6 | x6 | x6 | x6 | x6 | x6 | x6 | x6 | %323
 x6 | x6 | x6 | x6 | x6 | x6 | x6 | x6 | x6 | x6 | x6 | x6 | x6 | x6 | x x x B,/C/D/E/F/G/ | x6 | %339
 x6 | x6 | x6 | x6 | x6 | x6 |] %345
V:9
 x4 | x4 | x4 | x4 | x4 | x4 | x4 | x4 | x4 | x4 | x4 | x4 | x4 | x4 | x4 | x4 | x4 | x4 | x4 | %19
 x4 | x4 | x4 | x4 | x4 | x4 | x4 | x4 | x4 |[K:treble] x4 | x4 |[K:bass] x4 | x4 | x4 | x4 | x4 | %35
 x4 ||[M:6/8] x x x [A,,,A,,] x x | [A,,,A,,] x x [A,,,A,,] x x | [A,,,A,,] x x [A,,,A,,] x x | %39
 [A,,,A,,] x x A,, x x | A,, x x A,, x x | A,, x x A,, x x | A,, x x A,, x x | A,, x x A,, x x | %44
 A,, x x A,, x x | A,, x x x x2 | x6 | x2 x [A,,,A,,] x x | [A,,,A,,] x x [A,,,A,,] x x | %49
 [A,,,A,,] x x [A,,,A,,] x x | [A,,,A,,] x x [A,,,A,,] x x | A,, x x A,, x x | G,, x x G,, x x | %53
 [A,,,A,,] x x [A,,,A,,]2 x | x6 | [E,,E,]2 x [E,,E,] x x | G,, x x G,, x x | C, x x C, x x | %58
 [E,,E,] x x [E,,E,] x x | A,, x x A,, x x | [D,,D,] x x [D,,D,] x x | x6 | x6 | x6 | x6 | %65
 [E,,E,] z z x x x | x6 | x6 | x6 | x6 | x6 | x6 | x6 | x6 | x6 | x6 | x6 | x6 | x6 | x6 | x6 | %81
 x6 | x6 | x6 | x6 | [A,,,A,,] z z [G,,,G,,] z z | x6 | x6 | x6 | x6 | x6 | [E,^G,B,] x x x2 x | %92
 x6 | x6 | x6 | x6 | x6 | x6 | x6 | x6 | x6 | x6 | x6 | x6 | x6 | [A,,,A,,] x x [A,,,A,,] x x | %106
 [A,,,A,,] x x [A,,,A,,] x x | [A,,,A,,] x x [A,,,A,,] x x | [A,,,A,,] x x [A,,,A,,] x x | %109
 [A,,,A,,] x x [A,,,A,,] x x | A,, x x x x2 | x6 | x2 x [A,,,A,,] x x | %113
 [A,,,A,,] x x [A,,,A,,] x x | [A,,E,] z z [A,,E,] z z | [A,,E,] z z [A,,E,] z z | %116
 [D,,D,] z z [D,,D,] z z | [D,,D,] z z [^D,,^D,] z z | [E,,E,] x x x x2 | x6 | x6 | x6 | x6 | x6 | %124
 E,, z z z2 z | x6 | x6 | x6 | x6 | x6 | x3[K:treble] x3 | x6 | x6 | x6 | x6 | x6 | x6 | x6 | x6 | %139
 x6 | x6 | x6 | x6 | x6 | x4[K:bass] x2 | x6 | x6 | x6 | x6 | x6 | x6 | x6 | x6 | x6 | x6 | x6 | %156
 x6 | x6 | x6 | x6 | x6 | x6 | x6 | x6 | x6 | x6 | x6 | x6 | x6 | x6 | x6 | x6 | x6 | x6 | x6 | %175
 x6 | x6 | x6 | x6 | x6 | x6 | x6 | x6 | x6 | x6 | x6 | x6 | x6 | x6 | x6 | x6 | x6 | x6 | x6 | %194
 x6 | x6 | x6 | x6 | x6 | x6 | x6 | x6 | x6 | x6 | x6 | x6 | x6 | x6 | x6 | x6 | x6 | x6 | x6 | %213
 x6 | x6 | x6 | x6 | x6 | E,, z z z2 z | x6 | x6 | x6 | x6 | x6 | x3[K:treble] x3 | x6 | x6 | x6 | %228
 x6 | x6 | x6 | x6 | x6 | x6 |[K:bass] x6 | x6 | x6 | x6 | x6 | x6 | x6 | x6 | x6 | x6 | x6 | x6 | %246
 x6 | x6 | x6 | x6 | x6 | x6 | x6 | x6 | x6 | x6 | x6 | x6 | x6 | x6 | x6 | x6 | x6 | x6 | x6 | %265
 x6 | x6 | x6 | x6 | x6 | [E,,,E,,] z z x2 x | x6 | x6 | x6 | x6 | x6 | x6 | x6 | x6 | x6 | %280
[K:bass] x6 | x6 | x6 | x6 | x6 | x6 | x3[K:treble] x3 |[K:bass] x3[K:treble] x3 | %288
[K:bass] x3[K:treble] x3 |[K:bass] x3[K:treble] x3 |[K:bass] x3[K:treble] x3 | %291
[K:bass] x2 x[K:treble] z D/E/F | z D/E/F z E/F/E/D/ | x6 |[K:bass] x6 | x6 | x6 | x6 | x6 | x6 | %300
 x6 | x6 | x6 | x6 | x [E,,,E,,][F,,,F,,] [^F,,,^F,,][G,,,G,,][^G,,,^G,,] | %305
 [A,,,A,,][A,,,A,,][_B,,,_B,,] [^G,,,^G,,][A,,,A,,][^F,,,^F,,] | %306
 [G,,,=G,,][E,,,E,,][F,,,=F,,] [F,,,F,,][E,,,E,,][^D,,,^D,,] | x6 | x6 | x6 | x6 ||[K:A] x6 | x6 | %313
 x6 | x3 E,,2 z | A,,2 z[K:treble] x3 | x6 | x6 | x6 | x6 |[K:bass] x6 | x6 | x6 | x6 | %324
 [^A,,,^A,,]3 .[B,,,B,,].[C,,C,] x | .[D,,D,].[^D,,^D,] x .[=E,,=E,].[F,,F,] x | x6 | x6 | x6 | %329
 x6 | x6 | x6 | x6 | x6 | x6 | x6 | x6 | x6 | x6 | x6 | x6 | x6 | x6 | x6 | x6 |] %345

